!!!!SEGMENT: pl-wtm--r-130-m--003_moniuszko-stanislaw--msza-es-dur-gratias.krn
!!!cenid: 18xx:2696
!!!COM: Moniuszko, Stanisław
!!!COM-rismid: pe30008351
!!!CDT: 1819/05/05-1872/06/04
!!!CNT: Polish
!!!OTL: Msza Es-dur – Gratias
!!!PDT: 1865
!!!AGN: Sacred; Mass
!!!SMS-siglum: PL-Wtm
!!!SMS-shelfmark: R 130/M
!!!SMS-shelfwork: 001-003 M
!!!SMS-variant:
!!!SMS-altvar:
!!!NIFC-rismid: 1001095073
!!!URL-scan: http://repozytorium.nifc.pl/skany/pl-wtm-nut--r130m
!!!ONB-nifc: UWAGA: części Mszy: 1. Kyrie, 2. Gloria, 3. Gratias, 4. Credo, 5. Sanctus, 6. Benedictus, 7. Agnus Dei
**kern	**dynam	**kern	**dynam	**kern	**dynam	**kern	**dynam	**kern	**dynam	**kern	**kern	**kern	**kern	**dynam	**kern	**text	**dynam	**kern	**text	**text	**dynam	**kern	**text	**dynam	**kern	**text	**text	**dynam
*	*	*	*	*	*	*	*	*	*	*group2	*group2	*group1	*group1	*	*	*	*	*	*	*	*	*	*	*	*	*	*	*
*	*	*	*	*	*	*	*	*	*	*I""physhar=monica	*I""physhar=monica	*I""Organo.	*I""Organo.	*	*	*	*	*	*	*	*	*	*	*	*	*	*	*
*part11	*part11	*part10	*part10	*part9	*part9	*part8	*part8	*part7	*part7	*part6	*part6	*part5	*part5	*part5	*part4	*part4	*part4	*part3	*part3	*part3	*part3	*part2	*part2	*part2	*part1	*part1	*part1	*part1
*staff13	*	*staff12	*	*staff11	*	*staff10	*	*staff9	*	*staff8	*staff7	*staff6	*staff5	*	*staff4	*staff4	*	*staff3	*staff3	*staff3	*	*staff2	*staff2	*	*staff1	*staff1	*staff1	*
*I"[Contrabbasso]	*	*I"[Violoncello]	*	*I"[Viola]	*	*I"[Violino 2]	*	*I"V. Imo	*	*	*	*	*	*	*I"[Bassi]	*	*	*I"[Tenori]	*	*	*	*I"[Alti]	*	*	*I"[Soprani]	*	*	*
*clefF4	*	*clefF4	*	*clefC3	*	*clefG2	*	*clefG2	*	*clefG2	*clefG2	*clefF4	*clefG2	*	*clefF4	*	*	*clefG2	*	*	*	*clefG2	*	*	*clefG2	*	*	*
*Trd0c0	*	*	*	*	*	*	*	*	*	*Trd0c0	*Trd0c0	*	*	*	*	*	*	*Trd0c0	*	*	*	*	*	*	*	*	*	*
*k[b-]	*	*k[b-]	*	*k[b-]	*	*k[b-]	*	*k[b-]	*	*k[b-]	*k[b-]	*k[b-]	*k[b-]	*	*k[b-]	*	*	*k[b-]	*	*	*	*k[b-]	*	*	*k[b-]	*	*	*
*M3/4	*	*M3/4	*	*M3/4	*	*M3/4	*	*M3/4	*	*M3/4	*M3/4	*M3/4	*M3/4	*	*M3/4	*	*	*M3/4	*	*	*	*M3/4	*	*	*M3/4	*	*	*
=1	=1	=1	=1	=1	=1	=1	=1	=1	=1	=1	=1	=1	=1	=1	=1	=1	=1	=1	=1	=1	=1	=1	=1	=1	=1	=1	=1	=1
*all\right	*	*all\right	*	*all\right	*	*all\right	*	*all\right	*	*	*	*all\right	*all\right	*	*all\right	*	*	*all\right	*	*	*	*all\right	*	*	*all\right	*	*	*
*	*	*	*	*	*	*	*	*	*	*	*	*^	*	*	*	*	*	*	*	*	*	*	*	*	*	*	*	*
!	!	!	!	!	!	!	!	!	!	!	!	!LO:SIC:v:n=1:s=2.e-	!	!	!	!	!	!	!	!	!	!	!	!	!	!	!	!	!
!LO:SIC:v:t=błędne oznaczenie tonacji:s=BB- E-	!	!LO:SIC:v:t=błędne oznaczenie tonacji:s=BB- E-	!	!LO:SIC:v:t=błędne oznaczenie tonacji:s=B- e-	!	!LO:SIC:v:t=błędne oznaczenie tonacji:s=b- ee-	!	!LO:SIC:v:t=błędne oznaczenie tonacji:s=b- ee-	!	!	!	!LO:SIC:v:t=błędne oznaczenie tonacji:s=BB- E-	!	!LO:SIC:v:t=błędne oznaczenie tonacji:s=b- ee-	!	!LO:SIC:v:t=błędne oznaczenie tonacji:s=BB- E-	!	!	!LO:SIC:v:t=błędne oznaczenie tonacji:s=b- ee-	!	!	!	!LO:SIC:v:t=błędne oznaczenie tonacji:s=b- ee-	!	!	!LO:SIC:v:t=błędne oznaczenie tonacji:s=b- ee-	!	!	!
2.ryy	.	2.ryy	.	2.ryy	.	2.ryy	.	2.ryy	.	2.ryy	2.ryy	2.e 2.c 2.A 2.F\	2.rGG	(4f/	.	2.r	.	.	2.r	.	.	.	2.r	.	.	2.r	.	.	.
.	.	.	.	.	.	.	.	.	.	.	.	.	.	8g/L	.	.	.	.	.	.	.	.	.	.	.	.	.	.	.
.	.	.	.	.	.	.	.	.	.	.	.	.	.	8a/	.	.	.	.	.	.	.	.	.	.	.	.	.	.	.
.	.	.	.	.	.	.	.	.	.	.	.	.	.	8b-/	.	.	.	.	.	.	.	.	.	.	.	.	.	.	.
.	.	.	.	.	.	.	.	.	.	.	.	.	.	8cc/J	.	.	.	.	.	.	.	.	.	.	.	.	.	.	.
=2	=2	=2	=2	=2	=2	=2	=2	=2	=2	=2	=2	=2	=2	=2	=2	=2	=2	=2	=2	=2	=2	=2	=2	=2	=2	=2	=2	=2	=2
2.ryy	.	2.ryy	.	2.ryy	.	2.ryy	.	2.ryy	.	2.ryy	2.ryy	2.d 2.B- [<2.F\	2.rGG	4dd\	.	2.r	.	.	2.r	.	.	.	2.r	.	.	2.r	.	.	.
.	.	.	.	.	.	.	.	.	.	.	.	.	.	4ff\	.	.	.	.	.	.	.	.	.	.	.	.	.	.	.
.	.	.	.	.	.	.	.	.	.	.	.	.	.	4b-\	.	.	.	.	.	.	.	.	.	.	.	.	.	.	.
=3	=3	=3	=3	=3	=3	=3	=3	=3	=3	=3	=3	=3	=3	=3	=3	=3	=3	=3	=3	=3	=3	=3	=3	=3	=3	=3	=3	=3	=3
*	*	*	*	*	*	*	*	*	*	*	*	*	*^	*^	*	*	*	*	*	*	*	*	*	*	*	*	*	*	*
!	!	!	!	!	!	!	!	!	!	!	!	!LO:SIC:v:s=2.e-/	!	!	!	!	!	!	!	!	!	!	!	!	!	!	!	!	!	!	!
2.ryy	.	2.ryy	.	2.ryy	.	2.ryy	.	2.ryy	.	2.ryy	2.ryy	2.e/	4F\]	2.rGG	2.cc/	4b-\	.	2.r	.	.	2.r	.	.	.	2.r	.	.	2.r	.	.	.
.	.	.	.	.	.	.	.	.	.	.	.	.	(>4F\	.	.	8a\L	.	.	.	.	.	.	.	.	.	.	.	.	.	.	.
.	.	.	.	.	.	.	.	.	.	.	.	.	.	.	.	8g\J	.	.	.	.	.	.	.	.	.	.	.	.	.	.	.
.	.	.	.	.	.	.	.	.	.	.	.	.	4F#X\)	.	.	4a\	.	.	.	.	.	.	.	.	.	.	.	.	.	.	.
*	*	*	*	*	*	*	*	*	*	*	*	*	*v	*v	*	*	*	*	*	*	*	*	*	*	*	*	*	*	*	*	*
*	*	*	*	*	*	*	*	*	*	*	*	*	*	*v	*v	*	*	*	*	*	*	*	*	*	*	*	*	*	*	*
=4	=4	=4	=4	=4	=4	=4	=4	=4	=4	=4	=4	=4	=4	=4	=4	=4	=4	=4	=4	=4	=4	=4	=4	=4	=4	=4	=4	=4	=4
2.r	.	2.r	.	2.r	.	2.r	.	2.r	.	2.ryy	2.ryy	(4d 4G\	2.rGG	8b-/L	.	2.r	.	.	2.r	.	.	.	2.r	.	.	2.r	.	.	.
.	.	.	.	.	.	.	.	.	.	.	.	.	.	8d/	.	.	.	.	.	.	.	.	.	.	.	.	.	.	.
.	.	.	.	.	.	.	.	.	.	.	.	4B- 4D\	.	8f/	.	.	.	.	.	.	.	.	.	.	.	.	.	.	.
.	.	.	.	.	.	.	.	.	.	.	.	.	.	8g/	.	.	.	.	.	.	.	.	.	.	.	.	.	.	.
!LO:TX:b:i:t=pizzi	!	!LO:TX:a:i:t=arco	!	!	!	!	!	!	!	!	!	!	!	!LO:SIC:v:s=8e-	!	!	!	!	!	!	!	!	!	!	!	!	!	!	!
!	!	!LO:TX:b:i:t=[[pizzi]]	!	!	!	!	!	!	!	!	!	!	!	!	!	!	!	!	!	!	!	!	!	!	!	!	!	!	!
.	.	.	p	.	.	.	.	.	.	.	.	4A 4F\	.	8e/	.	.	.	.	.	.	.	.	.	.	.	.	.	.	.
.	.	.	.	.	.	.	.	.	.	.	.	.	.	8c/J)	.	.	.	.	.	.	.	.	.	.	.	.	.	.	.
=5	=5	=5	=5	=5	=5	=5	=5	=5	=5	=5	=5	=5	=5	=5	=5	=5	=5	=5	=5	=5	=5	=5	=5	=5	=5	=5	=5	=5	=5
*	*	*	*	*	*	*	*	*	*	*	*	*	*	*	*	*	*	*	*	*	*	*	*	*	*	*^	*	*	*
*	*	*	*	*2/left	*	*	*	*	*	*	*	*	*	*	*	*	*	*	*	*	*	*	*	*	*	*2\right	*	*above	*	*
!	!	!	!	!	!	!	!	!	!	!	!	!	!	!	!	!	!	!	!	!	!	!	!	!	!	!LO:TX:a:t=P:problem:tekst na górze	!	!	!	!
!	!	!	!	!	!LO:DY:rj	!	!	!	!	!	!	!	!	!	!	!	!	!	!	!	!	!	!	!	!	!LO:TX:a:i:t=Solo	!	!	!	!
4BB-/	.	8BB-/	.	2B-/	p	8r	p	8r	p	2.ryy	2.ryy	4B- 4F 4BB-\)	2.rGG	4d/	.	2.r	.	.	2.r	.	.	.	2.r	.	.	2dd\	2.rB	Gra-	.	.
.	.	8r	.	.	.	8d/	.	8f/L|	.	.	.	.	.	.	.	.	.	.	.	.	.	.	.	.	.	.	.	.	.	.
4r	.	4r	.	.	.	8d/L|	.	8f/|	.	.	.	4r	.	4r	.	.	.	.	.	.	.	.	.	.	.	.	.	.	.	.
.	.	.	.	.	.	(8d/	.	8f/|	.	.	.	.	.	.	.	.	.	.	.	.	.	.	.	.	.	.	.	.	.	.
4r	.	4r	.	(8d/L	.	8f/	.	(8b-/	.	.	.	4r	.	4r	.	.	.	.	.	.	.	.	.	.	.	8b-\	.	-ti-	.	.
.	.	.	.	8B-/J)	.	8d/J)	.	8f/J)	.	.	.	.	.	.	.	.	.	.	.	.	.	.	.	.	.	8cc\	.	-as,	.	.
*	*	*	*	*	*	*	*	*	*	*	*	*v	*v	*	*	*	*	*	*	*	*	*	*	*	*	*	*	*	*	*
=6	=6	=6	=6	=6	=6	=6	=6	=6	=6	=6	=6	=6	=6	=6	=6	=6	=6	=6	=6	=6	=6	=6	=6	=6	=6	=6	=6	=6	=6
*rep	*	*rep	*	*2/right	*	*rep	*	*	*	*	*	*	*	*	*	*	*	*	*	*	*	*	*	*	*	*	*	*	*
!	!	!	!	!LO:N:vis=2	!	!	!	!	!	!	!	!	!	!	!	!	!	!	!	!	!	!	!	!	!	!	!	!	!
4BB-/	.	8BB-/	.	2.B-/	.	8r	.	8r	.	2.ryy	2.ryy	2.ryy	2.ryy	.	2.r	.	.	2.r	.	.	.	2.r	.	.	4.dd\	2.rB	gra-	.	.
.	.	8r	.	.	.	8d/	.	8f/L|	.	.	.	.	.	.	.	.	.	.	.	.	.	.	.	.	.	.	.	.	.
4r	.	4r	.	.	.	8d/L|	.	8f/|	.	.	.	.	.	.	.	.	.	.	.	.	.	.	.	.	.	.	.	.	.
.	.	.	.	.	.	(8d/	.	(8f/	.	.	.	.	.	.	.	.	.	.	.	.	.	.	.	.	8dd\	.	-ti-	.	.
4r	.	4r	.	.	.	8f/	.	8dd/	.	.	.	.	.	.	.	.	.	.	.	.	.	.	.	.	4dd\	.	-as	.	.
.	.	.	.	.	.	8d/J)	.	8b-/J)	.	.	.	.	.	.	.	.	.	.	.	.	.	.	.	.	.	.	.	.	.
*Xrep	*	*Xrep	*	*	*	*Xrep	*	*	*	*	*	*	*	*	*	*	*	*	*	*	*	*	*	*	*	*	*	*	*
=7	=7	=7	=7	=7	=7	=7	=7	=7	=7	=7	=7	=7	=7	=7	=7	=7	=7	=7	=7	=7	=7	=7	=7	=7	=7	=7	=7	=7	=7
*rep	*	*	*	*	*	*	*	*	*	*	*	*	*	*	*	*	*	*	*	*	*	*	*	*	*	*	*	*	*
!	!	!	!	!	!	!	!	!	!	!	!	!	!	!	!	!	!	!	!	!	!	!	!	!	!LO:SIC:v:s=4ee-\	!	!	!	!
4BB-/	.	4BB-/	.	8r	.	8r	.	8r	.	2.ryy	2.ryy	2.ryy	2.ryy	.	2.r	.	.	2.r	.	.	.	2.r	.	.	4ee\	2.rB	a-	.	.
!	!	!	!	!	!	!LO:SIC:v:s=8e-/	!	!	!	!	!	!	!	!	!	!	!	!	!	!	!	!	!	!	!	!	!	!	!
.	.	.	.	8c\	.	8e/	.	8f/	.	.	.	.	.	.	.	.	.	.	.	.	.	.	.	.	.	.	.	.	.
*	*	*rep	*	*rep	*	*rep	*	*	*	*	*	*	*	*	*	*	*	*	*	*	*	*	*	*	*	*	*	*	*
4r	.	4BB-/	.	8r	.	8r	.	8r	.	.	.	.	.	.	.	.	.	.	.	.	.	.	.	.	8dd\L	.	-gi-	.	.
!	!	!	!	!	!	!LO:SIC:v:s=8e-/	!	!	!	!	!	!	!	!	!	!	!	!	!	!	!	!	!	!	!	!	!	!	!
.	.	.	.	8c\	.	8e/	.	8g/	.	.	.	.	.	.	.	.	.	.	.	.	.	.	.	.	8cc\J	.	.	.	.
*	*	*Xrep	*	*Xrep	*	*Xrep	*	*	*	*	*	*	*	*	*	*	*	*	*	*	*	*	*	*	*	*	*	*	*
*	*	*rep	*	*rep	*	*rep	*	*	*	*	*	*	*	*	*	*	*	*	*	*	*	*	*	*	*	*	*	*	*
4r	.	4BB-/	.	8r	.	8r	.	8r	.	.	.	.	.	.	.	.	.	.	.	.	.	.	.	.	8b-/L	.	-mus	.	.
!	!	!	!	!	!	!LO:SIC:v:s=8e-/	!	!	!	!	!	!	!	!	!	!	!	!	!	!	!	!	!	!	!	!	!	!	!
.	.	.	.	8c\	.	8e/	.	8a/	.	.	.	.	.	.	.	.	.	.	.	.	.	.	.	.	8a/J	.	.	.	.
*Xrep	*	*Xrep	*	*Xrep	*	*Xrep	*	*	*	*	*	*	*	*	*	*	*	*	*	*	*	*	*	*	*	*	*	*	*
*	*	*	*	*	*	*	*	*	*	*	*	*	*	*	*	*	*	*	*	*	*	*	*	*	*v	*v	*	*	*
=8	=8	=8	=8	=8	=8	=8	=8	=8	=8	=8	=8	=8	=8	=8	=8	=8	=8	=8	=8	=8	=8	=8	=8	=8	=8	=8	=8	=8
4BB-/	.	4BB-/	.	8r	.	8r	.	8r	.	2.ryy	2.ryy	2.ryy	2.ryy	.	2.r	.	.	2.r	.	.	.	2.r	.	.	2b-/	ti-	.	.
.	.	.	.	(8B-\L	.	(8d/L	.	8b-/L	.	.	.	.	.	.	.	.	.	.	.	.	.	.	.	.	.	.	.	.
4r	.	4r	.	8d\)	.	8f/)	.	8b-/	.	.	.	.	.	.	.	.	.	.	.	.	.	.	.	.	.	.	.	.
.	.	.	.	8B-\J|	.	8d/J|	.	8b-/J	.	.	.	.	.	.	.	.	.	.	.	.	.	.	.	.	.	.	.	.
4r	.	8BB-/	.	8r	.	8r	.	8r	.	.	.	.	.	.	.	.	.	.	.	.	.	.	.	.	8f/	-bi	.	.
.	.	8r	.	8B-/	.	(8d/	.	8f/	.	.	.	.	.	.	.	.	.	.	.	.	.	.	.	.	8r	.	.	.
=9	=9	=9	=9	=9	=9	=9	=9	=9	=9	=9	=9	=9	=9	=9	=9	=9	=9	=9	=9	=9	=9	=9	=9	=9	=9	=9	=9	=9
*	*	*	*	*	*	*	*	*	*	*	*	*	*	*	*	*	*	*	*	*	*	*	*	*	*^	*	*	*
*	*	*2\right	*	*	*	*	*	*	*	*	*	*	*	*	*	*	*	*	*	*	*	*	*	*	*	*	*	*	*
!LO:SIC:v:s=4E-\	!	!LO:SIC:v:s=2E-\	!	!	!	!	!	!	!	!	!	!	!	!	!	!	!	!	!	!	!	!	!	!	!	!	!	!	!
4E\	.	2E\	.	8r	.	8g/)	.	8r	.	2.ryy	2.ryy	2.ryy	2.ryy	.	2.r	.	.	2.r	.	.	.	2.r	.	.	(4g/	2.r	pro-	.	.
.	.	.	.	4G/	.	8r	.	8G/L|	.	.	.	.	.	.	.	.	.	.	.	.	.	.	.	.	.	.	.	.	.
4r	.	.	.	.	.	(4g/	.	(8g/	.	.	.	.	.	.	.	.	.	.	.	.	.	.	.	.	8a/L	.	.	.	.
.	.	.	.	4G/	.	.	.	8G/)	.	.	.	.	.	.	.	.	.	.	.	.	.	.	.	.	8bn/J)	.	.	.	.
4D\	.	4D\	.	.	.	4f/	.	(8f/	.	.	.	.	.	.	.	.	.	.	.	.	.	.	.	.	8cc\L	.	-pter	.	.
.	.	.	.	8G/	.	.	.	8G/J)	.	.	.	.	.	.	.	.	.	.	.	.	.	.	.	.	8dd\J	.	.	.	.
!!LO:PB:g=original
=10	=10	=10	=10	=10	=10	=10	=10	=10	=10	=10	=10	=10	=10	=10	=10	=10	=10	=10	=10	=10	=10	=10	=10	=10	=10	=10	=10	=10	=10
!	!	!	!	!	!	!LO:TX:b:t=P:problem:brak zakończenia łuku	!	!	!	!	!	!	!	!	!	!	!	!	!	!	!	!	!	!	!LO:SIC:v:s=2ee-	!	!	!	!
4C/	.	(4C/	.	4G/	.	2c/)	.	(8f/L	.	2.ryy	2.ryy	2.ryy	2.ryy	.	2.r	.	.	2.r	.	.	.	2.r	.	.	2ee\	2.rB	ma-	.	.
.	.	.	.	.	.	.	.	8g/	.	.	.	.	.	.	.	.	.	.	.	.	.	.	.	.	.	.	.	.	.
4AA/	.	4AA/	.	4c\	.	.	.	8f/	.	.	.	.	.	.	.	.	.	.	.	.	.	.	.	.	.	.	.	.	.
.	.	.	.	.	.	.	.	8c/)	.	.	.	.	.	.	.	.	.	.	.	.	.	.	.	.	.	.	.	.	.
4BB-/	.	4BB-/)	.	4F/	.	(8B-/L	.	(8d/	.	.	.	.	.	.	.	.	.	.	.	.	.	.	.	.	4dd\	.	-gnam	.	.
.	.	.	.	.	.	8d/J)	.	8b-/J)	.	.	.	.	.	.	.	.	.	.	.	.	.	.	.	.	.	.	.	.	.
=11	=11	=11	=11	=11	=11	=11	=11	=11	=11	=11	=11	=11	=11	=11	=11	=11	=11	=11	=11	=11	=11	=11	=11	=11	=11	=11	=11	=11	=11
4F\	.	8F\	.	(4c\	.	8f/	.	(4a/	.	2.ryy	2.ryy	2.ryy	2.ryy	.	2.r	.	.	2.r	.	.	.	2.r	.	.	4cc\	2.rB	glo-	.	.
.	.	8r	.	.	.	4f/	.	.	.	.	.	.	.	.	.	.	.	.	.	.	.	.	.	.	.	.	.	.	.
*	*	*rep	*	*	*	*	*	*	*	*	*	*	*	*	*	*	*	*	*	*	*	*	*	*	*	*	*	*	*
4F\	.	8F\	.	4B-\	.	.	.	4b-/	.	.	.	.	.	.	.	.	.	.	.	.	.	.	.	.	4dd\	.	-ri-	.	.
.	.	8r	.	.	.	4f/	.	.	.	.	.	.	.	.	.	.	.	.	.	.	.	.	.	.	.	.	.	.	.
*	*	*Xrep	*	*	*	*	*	*	*	*	*	*	*	*	*	*	*	*	*	*	*	*	*	*	*	*	*	*	*
*	*	*rep	*	*	*	*	*	*	*	*	*	*	*	*	*	*	*	*	*	*	*	*	*	*	*	*	*	*	*
4F\	.	8F\	.	4d\)	.	.	.	4g/)	.	.	.	.	.	.	.	.	.	.	.	.	.	.	.	.	4b-\	.	-am	.	.
.	.	8r	.	.	.	8f/	.	.	.	.	.	.	.	.	.	.	.	.	.	.	.	.	.	.	.	.	.	.	.
*	*	*Xrep	*	*	*	*	*	*	*	*	*	*	*	*	*	*	*	*	*	*	*	*	*	*	*	*	*	*	*
=12	=12	=12	=12	=12	=12	=12	=12	=12	=12	=12	=12	=12	=12	=12	=12	=12	=12	=12	=12	=12	=12	=12	=12	=12	=12	=12	=12	=12	=12
4F\	.	(4.F\	.	4c\	.	(8f/L	.	(8a/L	.	2.ryy	2.ryy	2.ryy	2.ryy	.	2.r	.	.	2.r	.	.	.	2.r	.	.	2cc\	2.rB	tu-	.	.
.	.	.	.	.	.	8g/	.	8b-/	.	.	.	.	.	.	.	.	.	.	.	.	.	.	.	.	.	.	.	.	.
4r	.	.	.	4r	.	8f/)	.	8a/)	.	.	.	.	.	.	.	.	.	.	.	.	.	.	.	.	.	.	.	.	.
!	!	!	!	!	!	!LO:SIC:v:s=8e-/|	!	!	!	!	!	!	!	!	!	!	!	!	!	!	!	!	!	!	!	!	!	!	!
.	.	8G\L|	.	.	.	8e/|	.	8g/|	.	.	.	.	.	.	.	.	.	.	.	.	.	.	.	.	.	.	.	.	.
4r	.	8A-X\|	.	4f\	.	8d/|	.	8f/|	.	.	.	.	.	.	.	.	.	.	.	.	.	.	.	.	8f/	.	-am,	.	.
!	!	!	!	!	!	!	!	!LO:SIC:v:s=8e-/J|	!	!	!	!	!	!	!	!	!	!	!	!	!	!	!	!	!	!	!	!	!
.	.	8An\J|	.	.	.	8c/J|	.	8e/J|	.	.	.	.	.	.	.	.	.	.	.	.	.	.	.	.	8r	.	.	.	.
=13	=13	=13	=13	=13	=13	=13	=13	=13	=13	=13	=13	=13	=13	=13	=13	=13	=13	=13	=13	=13	=13	=13	=13	=13	=13	=13	=13	=13	=13
4B-\	.	4B-\)	.	2F^/	.	8B-'/L	.	(8d/L	.	2.ryy	2.ryy	2F/	2.ryy	.	2.r	.	.	2.r	.	.	.	2.r	.	.	2dd/	2.rB	Do-	[[gra-	.
.	.	.	.	.	.	8d 8B-'/	.	8f/	.	.	.	.	.	.	.	.	.	.	.	.	.	.	.	.	.	.	.	.	.
4r	.	4r	.	.	.	8d 8B-'/	.	8b-/)	.	.	.	.	.	.	.	.	.	.	.	.	.	.	.	.	.	.	.	.	.
.	.	.	.	.	.	(8d/	.	(8b-/	.	.	.	.	.	.	.	.	.	.	.	.	.	.	.	.	.	.	.	.	.
!	!	!	!	!	!	!LO:SIC:v:s=8e-/)	!	!	!	!	!	!	!	!	!	!	!	!	!	!	!	!	!	!	!	!	!	!	!
4r	.	4r	.	(8G/L	.	8e/)	.	8g/)	.	.	.	8G/L	.	.	.	.	.	.	.	.	.	.	.	.	8b-/	.	-mi-	-ti-	.
!	!	!	!	!	!	!LO:SIC:v:s=8e-'/J	!	!	!	!	!	!	!	!	!	!	!	!	!	!	!	!	!	!	!	!	!	!	!
.	.	.	.	8A/J)	.	8e'/J	.	8f'/J	.	.	.	8A/J	.	.	.	.	.	.	.	.	.	.	.	.	8cc/	.	-ne	-as	.
=14	=14	=14	=14	=14	=14	=14	=14	=14	=14	=14	=14	=14	=14	=14	=14	=14	=14	=14	=14	=14	=14	=14	=14	=14	=14	=14	=14	=14	=14
*	*	*	*	*	*	*tremolo	*	*	*	*	*	*	*	*	*	*	*	*	*	*	*	*	*	*	*	*	*	*	*
4BB-/	.	8BB-/	.	4B-/	.	8d/L	.	8r	.	2.ryy	2.ryy	4B-/	2.ryy	.	2.r	.	.	2.r	.	.	.	2.r	.	.	(<4.dd/	2.rB	De-	gra-	<
.	.	8r	.	.	.	8d/J	.	8f/	.	.	.	.	.	.	.	.	.	.	.	.	.	.	.	.	.	.	.	.	.
4r	.	4r	.	4c/	.	8c/L	.	8f/L	.	.	.	4c/	.	.	.	.	.	.	.	.	.	.	.	.	.	.	.	.	.
!	!	!	!	!	!	!	!	!	!	!	!	!	!	!	!	!	!	!	!	!	!	!	!	!	!LO:SIC:v:s=8ee-/)	!	!	!	!
.	.	.	.	.	.	8c/J	.	8f/	.	.	.	.	.	.	.	.	.	.	.	.	.	.	.	.	8ee/)	.	.	-ti-	.
4r	.	4r	.	4d\	.	8B-/L	.	8b-/	.	.	.	4d/	.	.	.	.	.	.	.	.	.	.	.	.	4cc/	.	-us	-as	[
.	.	.	.	.	.	8B-/J	.	8b-/J	.	.	.	.	.	.	.	.	.	.	.	.	.	.	.	.	.	.	.	.	.
*	*	*	*	*	*	*Xtremolo	*	*	*	*	*	*	*	*	*	*	*	*	*	*	*	*	*	*	*	*	*	*	*
=15	=15	=15	=15	=15	=15	=15	=15	=15	=15	=15	=15	=15	=15	=15	=15	=15	=15	=15	=15	=15	=15	=15	=15	=15	=15	=15	=15	=15	=15
*	*	*	*	*2\right	*	*	*	*	*	*	*	*	*	*	*	*	*	*	*	*	*	*	*	*	*	*	*	*	*
4AA-X/	.	8AA-X/	.	2d\	.	8f/L	fp	8r	.	2.ryy	2.ryy	2.ryy	2d/	.	2.r	.	.	2.r	.	.	.	2.r	.	.	(<4.ff/	2.rB	Rex	a-	>
.	.	8r	.	.	.	8f/	.	8cc\L	.	.	.	.	.	.	.	.	.	.	.	.	.	.	.	.	.	.	.	.	.
4r	.	4r	.	.	.	8f/	.	8cc\	.	.	.	.	.	.	.	.	.	.	.	.	.	.	.	.	.	.	.	.	.
!	!	!	!	!	!	!	!	!	!	!	!	!	!	!	!	!	!	!	!	!	!	!	!	!	!LO:SIC:v:s=8ee-/)	!	!	!	!
.	.	.	.	.	.	8f/	.	8cc\	.	.	.	.	.	.	.	.	.	.	.	.	.	.	.	.	8ee/)	.	.	.	.
4r	.	4r	.	(8f\L	.	8f/	.	8dd\	.	.	.	.	8f/L	.	.	.	.	.	.	.	.	.	.	.	8dd/L	.	coe-	gi-	]
.	.	.	.	8a-X\J)	.	8f/J	.	8cc\J	.	.	.	.	8a-X/J	.	.	.	.	.	.	.	.	.	.	.	8cc/J	.	.	-mus	.
=16	=16	=16	=16	=16	=16	=16	=16	=16	=16	=16	=16	=16	=16	=16	=16	=16	=16	=16	=16	=16	=16	=16	=16	=16	=16	=16	=16	=16	=16
4A-X\	.	4A-X\	.	2c\	.	8r	.	8r	.	2.ryy	2.ryy	2.ryy	2c/	.	2.r	.	.	2.r	.	.	.	2.r	.	.	2b-/	2.rB	-le-	ti-	.
.	.	.	.	.	.	8f/	.	8cc\|	.	.	.	.	.	.	.	.	.	.	.	.	.	.	.	.	.	.	.	.	.
*	*	*	*	*	*	*tremolo	*	*	*	*	*	*	*	*	*	*	*	*	*	*	*	*	*	*	*	*	*	*	*
4r	.	4r	.	.	.	8f/L	.	8cc\L|	.	.	.	.	.	.	.	.	.	.	.	.	.	.	.	.	.	.	.	.	.
.	.	.	.	.	.	8f/	.	(8cc\	.	.	.	.	.	.	.	.	.	.	.	.	.	.	.	.	.	.	.	.	.
4r	.	4r	.	4d\	.	8f/	.	8b-\)	.	.	.	.	4d/	.	.	.	.	.	.	.	.	.	.	.	8b-/	.	-stis	-bi]]	.
.	.	.	.	.	.	8f/J	.	8b-\J|	.	.	.	.	.	.	.	.	.	.	.	.	.	.	.	.	8r	.	.	.	.
*	*	*	*	*	*	*Xtremolo	*	*	*	*	*	*	*	*	*	*	*	*	*	*	*	*	*	*	*	*	*	*	*
=17	=17	=17	=17	=17	=17	=17	=17	=17	=17	=17	=17	=17	=17	=17	=17	=17	=17	=17	=17	=17	=17	=17	=17	=17	=17	=17	=17	=17	=17
!	!	!	!	!LO:SIC:v:s=8e-\|	!	!	!	!	!	!	!	!	!LO:SIC:v:s=2e-/	!	!	!	!	!	!	!	!	!	!	!	!	!	!	!	!
4F\	.	8F\	.	8e\|	.	8r	.	8r	.	2.ryy	2.ryy	2.ryy	2e/	.	2.r	.	.	2.r	.	.	.	2.r	.	.	4b-/	2.rB	pa-	.	.
.	.	8r	.	8r	.	8B-/	.	8b-\	.	.	.	.	.	.	.	.	.	.	.	.	.	.	.	.	.	.	.	.	.
*	*	*	*	*	*	*rep	*	*rep	*	*	*	*	*	*	*	*	*	*	*	*	*	*	*	*	*	*	*	*	*
!	!	!	!	!	!	!	!	!	!	!	!	!	!	!	!	!	!	!	!	!	!	!	!	!	!LO:SIC:v:s=4ee-/	!	!	!	!
4G\	.	(4G\	.	(4e\	.	8r	.	8r	.	.	.	.	.	.	.	.	.	.	.	.	.	.	.	.	4ee/	.	-ter	.	.
.	.	.	.	.	.	8B-/	.	8b-\	.	.	.	.	.	.	.	.	.	.	.	.	.	.	.	.	.	.	.	.	.
*	*	*	*	*	*	*Xrep	*	*Xrep	*	*	*	*	*	*	*	*	*	*	*	*	*	*	*	*	*	*	*	*	*
*	*	*	*	*	*	*rep	*	*rep	*	*	*	*	*	*	*	*	*	*	*	*	*	*	*	*	*	*	*	*	*
4F\	.	4F\	.	4f\	.	8r	.	8r	.	.	.	.	4f/	.	.	.	.	.	.	.	.	.	.	.	4dd/	.	om-	.	.
!	!	!	!	!	!	!LO:TX:a:t=(x):problem:dwa takty skreślone i zapisane na dole	!	!	!	!	!	!	!	!	!	!	!	!	!	!	!	!	!	!	!	!	!	!	!
.	.	.	.	.	.	8B-/	.	8b-\	.	.	.	.	.	.	.	.	.	.	.	.	.	.	.	.	.	.	.	.	.
*	*	*	*	*	*	*Xrep	*	*Xrep	*	*	*	*	*	*	*	*	*	*	*	*	*	*	*	*	*	*	*	*	*
=18	=18	=18	=18	=18	=18	=18	=18	=18	=18	=18	=18	=18	=18	=18	=18	=18	=18	=18	=18	=18	=18	=18	=18	=18	=18	=18	=18	=18	=18
!	!	!	!	!	!	!LO:TX:a:t=v. 2.°	!	!	!	!	!	!	!	!	!	!	!	!	!	!	!	!	!	!	!	!	!	!	!
4E-X\	.	4E-X\)	.	2.g\)	.	8r	.	8r	.	2.ryy	2.ryy	2.ryy	2.g/	.	2.r	.	.	2.r	.	.	.	2.r	.	.	4.dd/	2.rB	-ni-	.	.
.	.	.	.	.	.	8dL 8B-/	.	8b-\|	.	.	.	.	.	.	.	.	.	.	.	.	.	.	.	.	.	.	.	.	.
4r	.	4r	.	.	.	8d 8B-/	.	8b-\|	.	.	.	.	.	.	.	.	.	.	.	.	.	.	.	.	.	.	.	.	.
.	.	.	.	.	.	8d-X/	.	4b-\	.	.	.	.	.	.	.	.	.	.	.	.	.	.	.	.	8dd-X/	.	-po-	.	.
4r	.	4r	.	.	.	8d-/	.	.	.	.	.	.	.	.	.	.	.	.	.	.	.	.	.	.	4dd-/	.	-tens	.	.
.	.	.	.	.	.	8d-/J	.	8b-\	.	.	.	.	.	.	.	.	.	.	.	.	.	.	.	.	.	.	.	.	.
=19	=19	=19	=19	=19	=19	=19	=19	=19	=19	=19	=19	=19	=19	=19	=19	=19	=19	=19	=19	=19	=19	=19	=19	=19	=19	=19	=19	=19	=19
!LO:SIC:v:s=4E-\	!	!	!	!	!	!	!	!	!	!	!	!	!	!	!	!	!	!	!	!	!	!	!	!	!	!	!	!	!
4En\	.	8En\	.	4.B-\	.	8r	.	8b-/	.	2.ryy	2.ryy	2.r	4.B-/	.	2.r	.	.	2.r	.	.	.	2.r	.	.	4.dd-X/	2.rB	gra-	.	.
.	.	8r	.	.	.	8g/	.	8r	.	.	.	.	.	.	.	.	.	.	.	.	.	.	.	.	.	.	.	.	.
*	*	*rep	*	*	*	*rep	*	*rep	*	*	*	*	*	*	*	*	*	*	*	*	*	*	*	*	*	*	*	*	*
!LO:SIC:v:s=4E-\	!	!	!	!	!	!	!	!	!	!	!	!	!	!	!	!	!	!	!	!	!	!	!	!	!	!	!	!	!
4E\	.	8E\	.	.	.	8r	.	8b-/	.	.	.	.	.	.	.	.	.	.	.	.	.	.	.	.	.	.	.	.	.
.	.	8r	.	8c\	.	8g/	.	8r	.	.	.	.	8c/	.	.	.	.	.	.	.	.	.	.	.	8cc/	.	-ti-	.	.
*	*	*Xrep	*	*	*	*Xrep	*	*Xrep	*	*	*	*	*	*	*	*	*	*	*	*	*	*	*	*	*	*	*	*	*
*	*	*rep	*	*	*	*rep	*	*rep	*	*	*	*	*	*	*	*	*	*	*	*	*	*	*	*	*	*	*	*	*
!LO:SIC:v:s=4E-\	!	!	!	!	!	!	!	!	!	!	!	!	!	!	!	!	!	!LO:TX:a:i:t=Solo.	!	!	!	!	!	!	!	!	!	!	!
4E\	.	8E\	.	4d-X\	.	8r	.	8b-/	.	.	.	.	4d-X/	p	.	.	.	.	.	.	.	.	.	.	4b-/	.	-as	.	.
.	.	8r	.	.	.	8g/	.	8r	.	.	.	.	.	.	.	.	.	.	.	.	.	.	.	.	.	.	.	.	.
*	*	*Xrep	*	*	*	*Xrep	*	*Xrep	*	*	*	*	*	*	*	*	*	*	*	*	*	*	*	*	*	*	*	*	*
=20	=20	=20	=20	=20	=20	=20	=20	=20	=20	=20	=20	=20	=20	=20	=20	=20	=20	=20	=20	=20	=20	=20	=20	=20	=20	=20	=20	=20	=20
*	*	*	*	*	*	*	*	*	*	*	*	*^	*	*	*	*	*	*^	*	*	*	*	*	*	*	*	*	*	*
!	!	!	!	!	!	!	!	!	!	!	!	!LO:TX:a:t=P:problem:brak początku ligatury	!	!	!	!	!	!	!	!	!	!	!	!	!	!	!	!	!	!	!
4F\	.	8F\	.	8c\	.	8r	.	8r	.	2.ryy	2.ryy	[2.F/	2.r	2.f/	.	2.r	.	.	2ff/	2.r	Gra-	.	.	2.r	.	.	4a/	2.r	ti-	.	.
.	.	8r	.	8r	.	8c'/	.	8a 8f/|	.	.	.	.	.	.	.	.	.	.	.	.	.	.	.	.	.	.	.	.	.	.	.
*	*	*	*	*	*	*tremolo	*	*tremolo	*	*	*	*	*	*	*	*	*	*	*	*	*	*	*	*	*	*	*	*	*	*	*
!	!	!	!	!	!	!LO:TX:b:t=....	!	!LO:TX:b:t=||||	!	!	!	!	!	!	!	!	!	!	!	!	!	!	!	!	!	!	!	!	!	!	!
4r	.	4r	.	4r	.	8c'/L	.	8aL 8f/|	.	.	.	.	.	.	.	.	.	.	.	.	.	.	.	.	.	.	4cc/	.	-bi	.	.
.	.	.	.	.	.	8c'/	.	8a 8f/|	.	.	.	.	.	.	.	.	.	.	.	.	.	.	.	.	.	.	.	.	.	.	.
!	!	!	!	!	!	!	!	!	!	!	!	!	!	!	!	!	!	!	!LO:SIC:v:s=8e-	!	!	!	!	!	!	!	!	!	!	!	!
4r	.	4r	.	4r	.	8c'/	.	8a 8f/|	.	.	.	.	.	.	.	.	.	.	8ee/	.	-ti-	.	.	.	.	.	4r	.	.	.	.
.	.	.	.	.	.	8c'/J	.	8aJ 8f/|	.	.	.	.	.	.	.	.	.	.	8cc/	.	-as	.	.	.	.	.	.	.	.	.	.
*	*	*	*	*	*	*Xtremolo	*	*Xtremolo	*	*	*	*	*	*	*	*	*	*	*	*	*	*	*	*	*	*	*	*	*	*	*
!!LO:PB:g=original
=21	=21	=21	=21	=21	=21	=21	=21	=21	=21	=21	=21	=21	=21	=21	=21	=21	=21	=21	=21	=21	=21	=21	=21	=21	=21	=21	=21	=21	=21	=21	=21
!	!	!	!	!	!	!	!	!	!	!	!	!	!	!LO:SIC:v:s=2.e-/	!	!	!	!	!	!	!	!	!	!	!	!	!	!	!	!	!
4F\	.	8F\	.	8r	.	8r	.	8r	.	2.ryy	2.ryy	2.F/_<	2.r	2.e/	.	2.r	.	.	8.b-/	2.r	a-	.	.	2.r	.	.	2g-X/	2.r	gra-	.	.
!	!	!	!	!	!	!LO:SIC:v:s=8e-/	!	!	!	!	!	!	!	!	!	!	!	!	!	!	!	!	!	!	!	!	!	!	!	!	!
.	.	8r	.	8B-/	.	8e/	.	8g-X/	.	.	.	.	.	.	.	.	.	.	.	.	.	.	.	.	.	.	.	.	.	.	.
.	.	.	.	.	.	.	.	.	.	.	.	.	.	.	.	.	.	.	16b-/	.	-gi-	.	.	.	.	.	.	.	.	.	.
*	*	*	*	*tremolo	*	*tremolo	*	*	*	*	*	*	*	*	*	*	*	*	*	*	*	*	*	*	*	*	*	*	*	*	*
!	!	!	!	!	!	!LO:SIC:v:s=8e-/L	!	!	!	!	!	!	!	!	!	!	!	!	!	!	!	!	!	!	!	!	!	!	!	!	!
4r	.	4r	.	8B-/L	.	8e/L	.	8g-/L	.	.	.	.	.	.	.	.	.	.	4b-/	.	-mus,	.	.	.	.	.	.	.	.	.	.
!	!	!	!	!	!	!LO:SIC:v:s=8e-/	!	!	!	!	!	!	!	!	!	!	!	!	!	!	!	!	!	!	!	!	!	!	!	!	!
.	.	.	.	8B-/	.	8e/	.	8g-/	.	.	.	.	.	.	.	.	.	.	.	.	.	.	.	.	.	.	.	.	.	.	.
!	!	!	!	!	!	!LO:SIC:v:s=8e-/	!	!LO:SIC:v:s=8e-/	!	!	!	!	!	!	!	!	!	!	!	!	!	!	!	!	!	!	!LO:SIC:v:s=8e-	!	!	!	!
4r	.	4r	.	8B-/	.	8e/	.	8e/	.	.	.	.	.	.	.	.	.	.	4r	.	.	.	.	.	.	.	8e/	.	-ti-	.	.
!	!	!	!	!	!	!LO:SIC:v:s=8e-/J	!	!	!	!	!	!	!	!	!	!	!	!	!	!	!	!	!	!	!	!	!	!	!	!	!
.	.	.	.	8B-/J	.	8e/J	.	8b-/J	.	.	.	.	.	.	.	.	.	.	.	.	.	.	.	.	.	.	8b-/	.	-as	.	.
*	*	*	*	*Xtremolo	*	*	*	*	*	*	*	*	*	*	*	*	*	*	*	*	*	*	*	*	*	*	*	*	*	*	*
*	*	*	*	*	*	*	*	*	*	*	*	*	*	*	*	*	*	*	*v	*v	*	*	*	*	*	*	*	*	*	*	*
=22	=22	=22	=22	=22	=22	=22	=22	=22	=22	=22	=22	=22	=22	=22	=22	=22	=22	=22	=22	=22	=22	=22	=22	=22	=22	=22	=22	=22	=22	=22
*	*	*	*	*	*	*	*	*	*	*	*	*	*	*	*	*	*	*	*	*	*	*	*^	*	*	*	*	*	*	*
*rep	*	*rep	*	*	*	*rep	*	*	*	*	*	*	*	*	*	*	*	*	*	*	*	*	*	*	*	*	*	*	*	*	*
!	!	!	!	!	!	!	!	!	!	!	!	!	!	!	!	!	!	!	!	!	!	!	!LO:TX:a:i:t=Solo:note=podkreślone na czerwono	!	!	!	!	!	!	!	!
4F\	.	8F\	.	8r	.	8r	.	8r	.	2.ryy	2.ryy	2.F/]	2.r	2.c/	.	2.r	.	.	2.r	.	.	.	2f/	2.r	Gra-	.	8.an/	2.r	a-	.	.
!	!	!	!	!	!	!LO:SIC:v:s=8e-/	!	!	!	!	!	!	!	!	!	!	!	!	!	!	!	!	!	!	!	!	!	!	!	!	!
.	.	8r	.	8c/	.	8e/	.	8a/L	.	.	.	.	.	.	.	.	.	.	.	.	.	.	.	.	.	.	.	.	.	.	.
.	.	.	.	.	.	.	.	.	.	.	.	.	.	.	.	.	.	.	.	.	.	.	.	.	.	.	16a/	.	-gi-	.	.
!	!	!	!	!	!	!LO:SIC:v:s=8e-/L	!	!	!	!	!	!	!	!	!	!	!	!	!	!	!	!	!	!	!	!	!	!	!	!	!
4r	.	4r	.	8c/L	.	8e/L	.	8a/	.	.	.	.	.	.	.	.	.	.	.	.	.	.	.	.	.	.	4a/	.	-mus	.	.
!	!	!	!	!	!	!LO:SIC:v:s=8e-/	!	!	!	!	!	!	!	!	!	!	!	!	!	!	!	!	!	!	!	!	!	!	!	!	!
.	.	.	.	8c/	.	8e/	.	8cc/	.	.	.	.	.	.	.	.	.	.	.	.	.	.	.	.	.	.	.	.	.	.	.
!	!	!	!	!	!	!LO:SIC:v:s=8e-/	!	!	!	!	!	!	!	!	!	!LO:TX:a:i:t=Solo:note=podkreślone na czerwono	!	!	!	!	!	!	!LO:SIC:v:s=8e-/	!	!	!	!	!	!	!	!
4r	.	4r	.	8A/	.	8e/	.	8f/	.	.	.	.	.	.	.	.	.	.	.	.	.	.	8e/	.	-ti-	.	4r	.	.	.	.
!	!	!	!	!	!	!LO:SIC:v:s=8e-/J	!	!	!	!	!	!	!	!	!	!	!	!	!	!	!	!	!	!	!	!	!	!	!	!	!
.	.	.	.	8A/J	.	8e/J	.	8f/J	.	.	.	.	.	.	.	.	.	.	.	.	.	.	8c/	.	-as	.	.	.	.	.	.
*Xrep	*	*Xrep	*	*	*	*Xrep	*	*	*	*	*	*	*	*	*	*	*	*	*	*	*	*	*	*	*	*	*	*	*	*	*
*	*	*	*	*	*	*Xtremolo	*	*	*	*	*	*	*	*	*	*	*	*	*	*	*	*	*	*	*	*	*	*	*	*	*
*	*	*	*	*	*	*	*	*	*	*	*	*	*	*	*	*	*	*	*	*	*	*	*	*	*	*	*v	*v	*	*	*
=23	=23	=23	=23	=23	=23	=23	=23	=23	=23	=23	=23	=23	=23	=23	=23	=23	=23	=23	=23	=23	=23	=23	=23	=23	=23	=23	=23	=23	=23	=23
*	*	*	*	*	*	*	*	*	*	*	*	*	*	*	*	*^	*	*	*	*	*	*	*	*	*	*	*	*	*	*
*rep	*	*	*	*	*	*	*	*	*	*	*	*	*	*	*	*	*	*above	*	*	*	*	*	*	*	*	*	*	*	*	*
4F\	.	2.ryy	.	8r	.	2.ryy	.	8r	.	2.ryy	2.ryy	(<4D-X/	2.r	2.B-/	.	2D-X/	2.r	Gra-	.	2.r	.	.	.	8.B-/	2.r	a-	.	2.r	.	.	.
.	.	.	.	8B-/L	.	.	.	8d-X/L	.	.	.	.	.	.	.	.	.	.	.	.	.	.	.	.	.	.	.	.	.	.	.
.	.	.	.	.	.	.	.	.	.	.	.	.	.	.	.	.	.	.	.	.	.	.	.	16d-X/	.	-gi-	.	.	.	.	.
4r	.	.	.	8B-/	.	.	.	8f/	.	.	.	4F/)	.	.	.	.	.	.	.	.	.	.	.	4f/	.	-mus	.	.	.	.	.
.	.	.	.	8d-X/	.	.	.	8b-/	.	.	.	.	.	.	.	.	.	.	.	.	.	.	.	.	.	.	.	.	.	.	.
4r	.	.	.	8f/	.	.	.	8dd-X/	.	.	.	4r	.	.	.	8C/	.	-ti-	.	.	.	.	.	4r	.	.	.	.	.	.	.
.	.	.	.	8d-/J	.	.	.	8ff/J	.	.	.	.	.	.	.	8C/	.	-as	.	.	.	.	.	.	.	.	.	.	.	.	.
*Xrep	*	*	*	*	*	*	*	*	*	*	*	*	*	*	*	*	*	*	*	*	*	*	*	*	*	*	*	*	*	*	*
*	*	*	*	*	*	*	*	*	*	*	*	*	*	*	*	*	*	*	*	*	*	*	*	*v	*v	*	*	*	*	*	*
=24	=24	=24	=24	=24	=24	=24	=24	=24	=24	=24	=24	=24	=24	=24	=24	=24	=24	=24	=24	=24	=24	=24	=24	=24	=24	=24	=24	=24	=24	=24
*	*	*	*	*	*	*	*	*	*	*	*	*	*	*	*	*	*	*	*	*^	*	*	*	*	*	*	*^	*	*^	*
!	!	!	!	!	!	!	!	!	!	!	!	!	!	!	!	!LO:TX:b:i:t=tutti:note=podkreślone na czerwono	!	!	!	!	!	!	!	!	!	!	!	!LO:TX:b:i:t=tutti:note=podkreślone na czerwono	!	!	!	!	!
4F\	.	(4F'\	p	8c/L	.	8a/L	.	8f/|	.	2.ryy	2.ryy	4r	2.r	(>4c 4A/	.	8F/	4r	ti-	.	4r	4ryy	.	.	.	4r	.	.	4r	4ryy	.	.	.	.
.	.	.	.	8A/J	.	8c/J	.	4f^/	.	.	.	.	.	.	.	8F/	.	-bi	.	.	.	.	.	.	.	.	.	.	.	.	.	.	.
*	*	*	*	*	*	*	*	*	*	*	*	*	*	*	*	*	*	*	*	*	*	*	*	*	*	*	*	*	*	*above	*below	*	*
!	!	!	!	!	!LO:DY:rj	!	!LO:DY:a	!	!	!	!	!	!	!	!	!	!	!	!	!LO:TX:a:i:t=tuti:note=podkreślone na czerwono	!	!	!	!LO:DY:b:rj	!LO:TX:a:i:t=tutti:note=podkreślone na czerwono	!	!LO:DY:b:rj	!LO:TX:a:i:t=Solo:note=podkreślone na czerwono	!	!	!	!	!
4r	.	4F'^\	.	4B-^/	p	4d-X^/	p	.	.	.	.	4r	.	4d-X 4B-/	.	4F/	4F\	pro-	.	4f/	4f\	[pro-	.	pp	4f/	pro-	pp	4f/	4f\	pro-	pro-	.	.
.	.	.	.	.	.	.	.	4f'/	.	.	.	.	.	.	.	.	.	.	.	.	.	.	.	.	.	.	.	.	.	.	.	.	.
4r	.	4F^\)	.	4Bn^/	.	4dn^/	.	.	.	.	.	4G#X/	.	4dn 4Bn/)	.	4F/	4F\	-pter	.	4f/	4f\	-pter	.	.	4f/	-pter	.	4f/	4f\	-pter	-pter	.	.
.	.	.	.	.	.	.	.	8f/	.	.	.	.	.	.	.	.	.	.	.	.	.	.	.	.	.	.	.	.	.	.	.	.	.
=25	=25	=25	=25	=25	=25	=25	=25	=25	=25	=25	=25	=25	=25	=25	=25	=25	=25	=25	=25	=25	=25	=25	=25	=25	=25	=25	=25	=25	=25	=25	=25	=25	=25
*2\right	*	*	*	*	*	*	*	*	*	*	*	*	*	*	*	*	*	*	*	*	*2\right	*	*	*	*	*	*	*	*	*	*	*	*
!LO:TX:a:i:t=arco	!	!	!	!	!	!LO:SIC:v:n=1:s=2.e-	!	!	!	!	!	!	!	!LO:SIC:v:n=1:s=2.e-/	!	!	!	!	!	!LO:TX:a:i:t=Solo:note=podkreślone na czerwono	!	!	!	!	!	!	!	!LO:SIC:v:n=2:s=(2.e-\	!	!	!	!	!
[2.F^\	p	4F^\	.	2.c 2.F^/	.	2.e 2.c^/	.	4f^/	.	2.ryy	2.ryy	2.A 2.F/	[2.FF\	2.e 2.c/	.	[>2.F/	[>2.F\	glo-	.	[2.ff/	[2.a\	glo]-	.	.	2.c/	glo-	.	(4f/	(2.e\	ma-	glo-	.	.
.	.	(8G\L	.	.	.	.	.	(8g/L	.	.	.	.	.	.	.	.	.	.	.	.	.	.	.	.	.	.	.	8g/L	.	.	.	.	.
.	.	8A\	.	.	.	.	.	8a/	.	.	.	.	.	.	.	.	.	.	.	.	.	.	.	.	.	.	.	8a/J)	.	.	.	.	.
.	.	8B-\	.	.	.	.	.	8b-/	.	.	.	.	.	.	.	.	.	.	.	.	.	.	.	.	.	.	.	8b-/L	.	-gnam	.	.	.
.	.	8c\J)	.	.	.	.	.	8cc/J)	.	.	.	.	.	.	.	.	.	.	.	.	.	.	.	.	.	.	.	8cc/J	.	.	.	.	.
=26	=26	=26	=26	=26	=26	=26	=26	=26	=26	=26	=26	=26	=26	=26	=26	=26	=26	=26	=26	=26	=26	=26	=26	=26	=26	=26	=26	=26	=26	=26	=26	=26	=26
*	*	*	*	*	*	*	*	*	*	*	*	*	*	*	*	*	*	*	*	*	*	*^	*	*	*	*	*	*	*	*	*	*	*
*	*	*	*	*	*	*	*	*	*	*	*	*	*	*	*	*	*	*	*	*	*	*above	*below	*	*	*	*	*	*	*	*	*	*	*
2.F\]	.	(4d\	.	(4F/	.	2d 2B-/	.	(4dd\	.	2.ryy	2.ryy	4B-/	2.F 2.FF\]	4d/	.	4F/]	4F\]	.	.	4ff/]	2a\]	.	-ri-	.	.	(2d/	-ri-	.	4dd/	4d\)	glo-	.	.	.
.	.	4f\)	.	4B-/)	.	.	.	4ff\)	.	.	.	2d/	.	4f/	.	4F/	4F\	-ri-	.	4dd/	.	ri-	.	.	.	.	.	.	4ff/	4f\	-ri-	-ri-	.	.
.	.	4B-\	.	4d\	.	4b-\	.	4b-\	.	.	.	.	.	4b-/	.	4F/	4F\	-am	.	4dd/	4dd\	-am	-am	.	.	4B-/)	-am	.	4b-/	4b-\	am	-am	.	.
*	*	*	*	*	*	*	*	*	*	*	*	*	*	*	*	*	*	*	*	*	*	*v	*v	*	*	*	*	*	*	*	*	*	*	*
=27	=27	=27	=27	=27	=27	=27	=27	=27	=27	=27	=27	=27	=27	=27	=27	=27	=27	=27	=27	=27	=27	=27	=27	=27	=27	=27	=27	=27	=27	=27	=27	=27	=27
*	*	*	*	*	*	*	*	*	*	*	*	*	*	*^	*	*	*	*	*	*	*	*	*	*	*	*	*	*	*	*	*	*	*
*	*	*	*	*	*	*2\right	*	*2\right	*	*	*	*	*	*	*2\right	*	*	*	*	*	*	*	*	*	*	*	*	*	*	*	*	*	*	*
!	!	!	!	!	!	!	!	!	!	!	!	!	!	!	!	!	!	!	!	!	!LO:SIC:v:s=2.ee-/	!	!	!	!	!	!	!	!	!	!	!	!	!
!	!	!	!	!LO:SIC:v:s=2.e-\	!	!	!	!	!	!	!	!	!LO:N:vis=2	!LO:SIC:v:n=3:s=2.e-/	!	!	!LO:N:vis=2	!	!	!	!LO:SIC:v:s=2.ee-\	!	!	!	!	!	!	!	!	!	!	!	!	!
2.F\	.	[2.F\	.	2.e\	.	(2b-\	.	2.cc\	.	2.ryy	2.ryy	2.F/	2.F\	2.cc 2.e/	2b-\	.	2.F/	2.F\	tu-	.	2.ee/	2.ee\	tu-	.	.	2.f/	tu-	.	2.cc/	(2b-\	tu-	tu-	.	.
.	.	.	.	.	.	4a\)	.	.	.	.	.	.	.	.	4a\	.	.	.	.	.	.	.	.	.	.	.	.	.	.	4a\)	.	.	.	.
*	*	*	*	*	*	*	*	*	*	*	*	*	*	*v	*v	*	*	*	*	*	*	*	*	*	*	*	*	*	*	*	*	*	*	*
=28	=28	=28	=28	=28	=28	=28	=28	=28	=28	=28	=28	=28	=28	=28	=28	=28	=28	=28	=28	=28	=28	=28	=28	=28	=28	=28	=28	=28	=28	=28	=28	=28	=28
4B-\	.	4F\]	.	8d\	.	8b-\	.	8b-\	.	2.ryy	2.ryy	4BB-/	4BB-\	8b- 8d/	.	4B-/	4BB-/	-am.	.	4dd/	4dd\	-am.	.	.	4f/	-am.	.	4b-/	4b-\	-am.	-am.	.	.
.	.	.	.	8f\L|	.	8f/L|	.	8r	.	.	.	.	.	(8f/L	.	.	.	.	.	.	.	.	.	.	.	.	.	.	.	.	.	.	.
4r	.	4r	.	(8g\	.	(8g/	.	4r	.	.	.	4r	4ryy	8g/	.	4r	4ryy	.	.	4r	4ryy	.	.	.	4r	.	.	4r	4ryy	.	.	.	.
.	.	.	.	8f\	.	8f/	.	.	.	.	.	.	.	8f/	.	.	.	.	.	.	.	.	.	.	.	.	.	.	.	.	.	.	.
4r	.	4r	.	8B-\	.	8B-/	.	4r	.	.	.	4r	4ryy	8B-/	.	4r	4ryy	.	.	4r	4ryy	.	.	.	4r	.	.	4r	4ryy	.	.	.	.
.	.	.	.	8c\J)	.	8c/J)	.	.	.	.	.	.	.	8c/J)	.	.	.	.	.	.	.	.	.	.	.	.	.	.	.	.	.	.	.
*	*	*	*	*	*	*	*	*	*	*	*	*	*	*	*	*	*	*	*	*	*	*	*	*	*	*	*	*	*	*v	*v	*	*
*	*	*	*	*	*	*	*	*	*	*	*	*	*	*	*	*v	*v	*	*	*	*	*	*	*	*	*	*	*v	*v	*	*	*
=29	=29	=29	=29	=29	=29	=29	=29	=29	=29	=29	=29	=29	=29	=29	=29	=29	=29	=29	=29	=29	=29	=29	=29	=29	=29	=29	=29	=29	=29	=29
!LO:TX:b:i:t=pizzi	!	!	!	!	!	!	!	!	!	!	!	!	!	!	!	!	!	!	!LO:TX:a:i:t=Solo	!	!	!	!	!	!	!	!	!	!	!
8B-\	.	8B-\	.	8d\L	.	8d/L	.	8r	.	2.ryy	2.ryy	[>2.F [<2.BB-/	2.r	(4d/	.	2.r	.	.	2dd\	2.r	gra-	.	.	2.r	.	.	2.r	.	.	.
8r	.	8r	.	8B-\J	.	(8B-/	.	(8d/L	.	.	.	.	.	.	.	.	.	.	.	.	.	.	.	.	.	.	.	.	.	.
*	*	*	*	*tremolo	*	*	*	*	*	*	*	*	*	*	*	*	*	*	*	*	*	*	*	*	*	*	*	*	*	*
4r	.	4r	.	8B-\L	.	8d/)	.	8f/)	.	.	.	.	.	4f/)	.	.	.	.	.	.	.	.	.	.	.	.	.	.	.	.
.	.	.	.	8B-\	.	8d/	.	8f/	.	.	.	.	.	.	.	.	.	.	.	.	.	.	.	.	.	.	.	.	.	.
!	!	!	!	!	!	!	!	!	!	!	!	!	!	!	!LO:DY:t=pp.	!	!	!	!	!	!	!	!	!	!	!	!	!	!	!
4r	.	4r	.	8B-\	.	8d/	.	8f/	.	.	.	.	.	4r	pp	.	.	.	8b-\	.	-ti-	.	.	.	.	.	.	.	.	.
.	.	.	.	8B-\J	.	8d/J	.	8f/J	.	.	.	.	.	.	.	.	.	.	8cc\	.	-as	.	.	.	.	.	.	.	.	.
=30	=30	=30	=30	=30	=30	=30	=30	=30	=30	=30	=30	=30	=30	=30	=30	=30	=30	=30	=30	=30	=30	=30	=30	=30	=30	=30	=30	=30	=30	=30
*	*	*	*	*	*	*	*	*	*	*	*	*	*^	*	*	*	*	*	*	*	*	*	*	*	*	*	*^	*	*	*
!	!	!	!	!	!	!	!	!	!	!	!	!	!	!	!	!	!	!	!	!	!	!	!	!	!	!	!	!LO:TX:a:i:t=Solo	!	!	!	!
8BB-/	.	8BB-/	.	8r	.	8r	.	8r	.	2.ryy	2.ryy	2F/]	2.BB-\_	2.r	8r	.	2.r	.	.	4.dd\	2.r	gra-	.	.	2.r	.	.	(<4b-/	2.r	gra-	.	.
8r	.	8r	.	8B-\	.	8d/	.	(8b-/L	.	.	.	.	.	.	(8b-/L	.	.	.	.	.	.	.	.	.	.	.	.	.	.	.	.	.
*	*	*	*	*	*	*tremolo	*	*	*	*	*	*	*	*	*	*	*	*	*	*	*	*	*	*	*	*	*	*	*	*	*	*
4r	.	4r	.	8B-\L	.	8d/L	.	8a/)	.	.	.	.	.	.	8a/	.	.	.	.	.	.	.	.	.	.	.	.	8cc/L	.	.	.	.
.	.	.	.	8B-\	.	8d/	.	8g/	.	.	.	.	.	.	8g/J)	.	.	.	.	8dd\	.	-ti-	.	.	.	.	.	8dd/	.	.	.	.
!	!	!	!	!	!	!	!	!	!	!	!	!	!	!	!	!	!	!	!	!	!	!	!	!	!	!	!	!LO:SIC:v:s=8ee-/	!	!	!	!
4r	.	4r	.	8B-\	.	8d/	.	8f/	.	.	.	8B-/	.	.	4f/	.	.	.	.	4dd\	.	-as	.	.	.	.	.	8ee/	.	.	.	.
.	.	.	.	8B-\J	.	8d/J	.	8f/J	.	.	.	8r	.	.	.	.	.	.	.	.	.	.	.	.	.	.	.	8ff/J	.	.	.	.
*	*	*	*	*Xtremolo	*	*	*	*	*	*	*	*	*	*	*	*	*	*	*	*	*	*	*	*	*	*	*	*	*	*	*	*
*	*	*	*	*	*	*	*	*	*	*	*	*	*v	*v	*	*	*	*	*	*	*	*	*	*	*	*	*	*	*	*	*	*
=31	=31	=31	=31	=31	=31	=31	=31	=31	=31	=31	=31	=31	=31	=31	=31	=31	=31	=31	=31	=31	=31	=31	=31	=31	=31	=31	=31	=31	=31	=31	=31
*	*	*	*	*	*	*	*	*tremolo	*	*	*	*	*	*	*	*	*	*	*	*	*	*	*	*	*	*	*	*	*	*	*
!	!	!	!	!	!	!LO:SIC:v:s=8e-/L	!	!	!	!	!	!	!	!	!	!	!	!	!	!	!	!	!	!	!	!	!	!	!	!	!
4BB-/	.	8BB-/	.	8B-/	.	8e/L	.	8g-X/L	.	2.ryy	2.ryy	2.BB-/]	2.r	2a/	.	2.r	.	.	4ee\	2.r	a-	.	.	2.r	.	.	4gg-X/)	2.r	.	.	.
!	!	!	!	!	!	!LO:SIC:v:s=8e-/J	!	!	!	!	!	!	!	!	!	!	!	!	!	!	!	!	!	!	!	!	!	!	!	!	!
.	.	8r	.	4B-/	.	8e/J	.	8g-/J	.	.	.	.	.	.	.	.	.	.	.	.	.	.	.	.	.	.	.	.	.	.	.
*	*	*rep	*	*	*	*	*	*	*	*	*	*	*	*	*	*	*	*	*	*	*	*	*	*	*	*	*	*	*	*	*
4BB-/	.	8BB-/	.	.	.	8d/L	.	8f/L	.	.	.	.	.	.	.	.	.	.	8dd\L	.	-gi-	.	.	.	.	.	4.ff/	.	.	.	.
.	.	8r	.	4B-/	.	8d/J	.	8f/J	.	.	.	.	.	.	.	.	.	.	8cc\J	.	.	.	.	.	.	.	.	.	.	.	.
*	*	*Xrep	*	*	*	*	*	*Xtremolo	*	*	*	*	*	*	*	*	*	*	*	*	*	*	*	*	*	*	*	*	*	*	*
*	*	*rep	*	*	*	*	*	*	*	*	*	*	*	*	*	*	*	*	*	*	*	*	*	*	*	*	*	*	*	*	*
4BB-/	.	8BB-/	.	.	.	8c/L	.	8f/L	.	.	.	.	.	8b-/L	.	.	.	.	8b-/L	.	-mus	.	.	.	.	.	.	.	.	.	.
!	!	!	!	!	!	!	!	!LO:SIC:v:s=8e-/J	!	!	!	!	!	!	!	!	!	!	!	!	!	!	!	!	!	!	!	!	!	!	!
.	.	8r	.	8F/	.	8c/J	.	8e/J	.	.	.	.	.	8cc/J	.	.	.	.	8a/J	.	.	.	.	.	.	.	8cc/	.	-ti-	.	.
*	*	*Xrep	*	*	*	*	*	*	*	*	*	*	*	*	*	*	*	*	*	*	*	*	*	*	*	*	*	*	*	*	*
!!LO:PB:g=original
=32	=32	=32	=32	=32	=32	=32	=32	=32	=32	=32	=32	=32	=32	=32	=32	=32	=32	=32	=32	=32	=32	=32	=32	=32	=32	=32	=32	=32	=32	=32	=32
*	*	*	*	*	*	*	*	*	*	*	*	*	*	*^	*	*	*	*	*	*	*	*	*	*	*	*	*	*	*	*	*
*	*	*	*	*tremolo	*	*	*	*tremolo	*	*	*	*2\right	*	*	*	*	*	*	*	*	*	*	*	*	*	*	*	*	*	*	*	*
4BB-/	.	8r	.	8F/L	.	8B-/L	.	8d/L	.	2.ryy	2.ryy	2.B-\	2.r	2.b-/	(>2d\	.	2.r	.	.	2b-/	2.r	ti-	.	.	2.r	.	.	8dd/	2.r	-as	.	.
!	!	!LO:TX:a:i:t=pizzi	!	!	!	!	!	!	!	!	!	!	!	!	!	!	!	!	!	!	!	!	!	!	!	!	!	!	!	!	!	!
.	.	8BB-/L	<	8F/	.	8B-/	.	8d/	.	.	.	.	.	.	.	.	.	.	.	.	.	.	.	.	.	.	.	8r	.	.	.	.
4r	.	8AA/	.	8F/	.	8B-/	.	8d/	.	.	.	.	.	.	.	.	.	.	.	.	.	.	.	.	.	.	.	4b-/	.	Je-	.	.
.	.	8BB-/	.	8F/	.	8B-/	.	8d/J	.	.	.	.	.	.	.	.	.	.	.	.	.	.	.	.	.	.	.	.	.	.	.	.
*	*	*	*	*	*	*	*	*Xtremolo	*	*	*	*	*	*	*	*	*	*	*	*	*	*	*	*	*	*	*	*	*	*	*	*
!	!	!	!	!	!	!	!	!LO:SIC:v:s=8e-/L	!	!	!	!	!	!	!LO:SIC:v:s=8e-\L	!	!	!	!	!	!	!	!	!	!	!	!	!	!	!	!	!
4r	.	8C/	.	8F/	.	8B-/	.	8e/L	.	.	.	.	.	.	8e\L	.	.	.	.	4f/	.	-bi	.	.	.	.	.	4b-/	.	-su,	.	.
!LO:TX:a:i:t=arco	!	!	!	!	!	!	!	!	!	!	!	!	!	!	!	!	!	!	!	!	!	!	!	!	!	!	!	!	!	!	!	!
.	p	8D/J	[[	8F/J	.	8B-/J	.	8f/J	.	.	.	.	.	.	8f\J)	.	.	.	.	.	.	.	.	.	.	.	.	.	.	.	.	.
*	*	*	*	*	*	*	*	*	*	*	*	*	*	*v	*v	*	*	*	*	*	*	*	*	*	*	*	*	*	*	*	*	*
=33	=33	=33	=33	=33	=33	=33	=33	=33	=33	=33	=33	=33	=33	=33	=33	=33	=33	=33	=33	=33	=33	=33	=33	=33	=33	=33	=33	=33	=33	=33	=33
4.E\	.	8E\	.	8r	.	8r	.	8r	.	2.ryy	2.ryy	(2G\	2.r	(4g\	.	2.r	.	.	(<4g/	2.r	fi-	.	.	2.r	.	.	(<4.gg/	2.r	Je-	.	.
.	.	8r	.	8G/	.	8g/	.	8g/	.	.	.	.	.	.	.	.	.	.	.	.	.	.	<	.	.	.	.	.	.	.	.
!	!	!LO:TX:a:i:t=arco	!	!	!	!	!	!	!	!	!	!	!	!	!	!	!	!	!	!	!	!	!	!	!	!	!	!	!	!	!
.	.	8E\L|	.	8G/L	.	8g/L	.	(8g/L	.	.	.	.	.	8an\L	.	.	.	.	8a/L	.	.	.	.	.	.	.	.	.	.	.	.
!	!	!	!	!	!	!	!	!	!	!	!	!	!	!	!	!	!	!	!	!	!	!	!	!	!	!	!LO:SIC:v:s=8ee-/)	!	!	!	!
8D/L|	.	8D\|	.	8G/	.	8g/	.	8f/)	.	.	.	.	.	8bn\	.	.	.	.	8bn/J)	.	.	.	.	.	.	.	8ee/)	.	.	.	.
!	!	!	!	!	!	!	!	!LO:SIC:v:s=8e-/|	!	!	!	!	!	!	!	!	!	!	!	!	!	!	!	!	!	!	!LO:SIC:v:s=8ee-/L	!	!	!	!
8C/|	.	8C\|	.	8G/	.	8g/	.	8e/|	.	.	.	8An\L	.	8cc\	.	.	.	.	8cc/L	.	-li	.	.	.	.	.	8ee/L	.	su	.	.
8BBn/J|	.	8BBn\J|	.	8G/J	.	8g/J	.	8d/J|	.	.	.	8Bn\J	.	8dd\J	.	.	.	.	8dd/J	.	.	.	[	.	.	.	8dd/J	.	.	.	.
*	*	*	*	*Xtremolo	*	*Xtremolo	*	*	*	*	*	*	*	*	*	*	*	*	*	*	*	*	*	*	*	*	*	*	*	*	*
=34	=34	=34	=34	=34	=34	=34	=34	=34	=34	=34	=34	=34	=34	=34	=34	=34	=34	=34	=34	=34	=34	=34	=34	=34	=34	=34	=34	=34	=34	=34	=34
*	*	*	*	*	*	*	*	*	*	*	*	*	*	*^	*	*	*	*	*	*	*	*	*	*	*	*	*	*	*	*	*
!	!	!	!	!	!	!	!	!LO:SIC:v:s=(8e-/L	!	!	!	!	!	!LO:SIC:v:n=1:s=2ee-/	!	!	!	!	!	!LO:SIC:v:s=2e-/	!	!	!	!LO:DY:a	!	!	!	!	!	!	!	!
8C/	.	8C\	.	8G/L	.	8r	.	(8e/L	.	2.ryy	2.ryy	2c\	2.r	2ee/	(>4g\	.	2.r	.	.	2ee/	2.r	u-	.	>	2.r	.	.	2cc/	2.r	Chri-	.	.
!	!	!	!	!	!	!LO:SIC:v:s=8e-/	!	!	!	!	!	!	!	!	!	!	!	!	!	!	!	!	!	!	!	!	!	!	!	!	!	!
8r	.	8r	.	8c/J	.	8e/	.	8g/J)	.	.	.	.	.	.	.	.	.	.	.	.	.	.	.	.	.	.	.	.	.	.	.	.
8F\	.	8F\	.	8r	.	8r	.	8r	.	.	.	.	.	.	4an\	.	.	.	.	.	.	.	.	.	.	.	.	.	.	.	.	.
!	!	!	!	!	!	!LO:SIC:v:s=8e-/	!	!	!	!	!	!	!	!	!	!	!	!	!	!	!	!	!	!	!	!	!	!	!	!	!	!
8r	.	8r	.	8c\	.	8e/	.	8cc\	.	.	.	.	.	.	.	.	.	.	.	.	.	.	.	.	.	.	.	.	.	.	.	.
8BB-/	.	8BB-/	.	8r	.	8r	.	8r	.	.	.	4B-\)	.	8dd/L	4b-\)	.	.	.	.	4dd/	.	-ni-	.	.	.	.	.	4b-/	.	-ste	.	.
8r	.	8r	.	[8f\	.	8d/	.	8b-\	.	.	.	.	.	8b-/J)	.	.	.	.	.	.	.	.	.	.	.	.	.	.	.	.	.	.
*	*	*	*	*	*	*	*	*	*	*	*	*v	*v	*	*	*	*	*	*	*	*	*	*	*	*	*	*	*v	*v	*	*	*
*	*	*	*	*	*	*	*	*	*	*	*	*	*v	*v	*	*	*	*	*	*	*	*	*	*	*	*	*	*	*	*
=35	=35	=35	=35	=35	=35	=35	=35	=35	=35	=35	=35	=35	=35	=35	=35	=35	=35	=35	=35	=35	=35	=35	=35	=35	=35	=35	=35	=35	=35
*	*	*	*	*^	*	*	*	*	*	*	*	*	*	*	*	*	*	*	*	*	*	*	*	*	*	*	*	*	*
8FF/	.	8FF/	.	8f\]	8F\	.	8r	.	8r	.	2.ryy	2.ryy	(4c 4A\	2.f/	.	2.r	.	.	(<4cc/	2.r	-ge-	.	]	2.r	.	.	4a/	Do-	.	.
8r	.	8r	.	4f\	4F\	.	8c/	.	8a/	.	.	.	.	.	.	.	.	.	.	.	.	.	.	.	.	.	.	.	.	.
4r	.	8FF/	.	.	.	.	8r	.	8r	.	.	.	4d-X 4B-\	.	.	.	.	.	4dd-X/)	.	.	.	.	.	.	.	4b-/	-mi-	.	.
.	.	8r	.	4f\	4F\	.	8d-X/	.	8b-/	.	.	.	.	.	.	.	.	.	.	.	.	.	.	.	.	.	.	.	.	.
4r	.	8FF/	.	.	.	.	8r	.	8r	.	.	.	4B- 4G\)	.	.	.	.	.	4b-/	.	-ni-	.	.	.	.	.	4dd-X/	-ne	.	.
.	.	8r	.	8f\	8F\	.	8B-/	.	8dd-X\	.	.	.	.	.	.	.	.	.	.	.	.	.	.	.	.	.	.	.	.	.
*	*	*	*	*v	*v	*	*	*	*	*	*	*	*	*	*	*	*	*	*	*	*	*	*	*	*	*	*	*	*	*
=36	=36	=36	=36	=36	=36	=36	=36	=36	=36	=36	=36	=36	=36	=36	=36	=36	=36	=36	=36	=36	=36	=36	=36	=36	=36	=36	=36	=36	=36
2.r	.	4F\	.	(8F/L	<	(8A/L	.	8r	.	2.ryy	2.ryy	4c 4F\	4f/	.	2.r	.	.	4a/	2.r	-te	.	.	2.r	.	.	2ff/	De-	.	.
.	.	.	.	8A/J)	.	8f/J)	<	8cc\L	<	.	.	.	.	.	.	.	.	.	.	.	.	.	.	.	.	.	.	.	.
.	.	(8F\L	<	8A/L|	.	(8f/L	.	8cc\	.	.	.	4r	4r	.	.	.	.	4r	.	.	.	.	.	.	.	.	.	.	.
.	.	8E-X\J)	.	(8A-X/	.	8a-X/)	.	8cc\	.	.	.	.	.	.	.	.	.	.	.	.	.	.	.	.	.	.	.	.	.
!	!	!LO:TX:t=P:problem:mixed beam	!	!	!	!	!	!	!	!	!	!	!	!	!	!	!	!	!	!	!	!	!	!	!	!	!	!	!
.	.	.	.	.	.	.	.	8qcc/	.	.	.	.	.	.	.	.	.	.	.	.	.	.	.	.	.	.	.	.	.
.	.	8E-\L|	.	8B-/)	.	8g/|	.	8b-\	[	.	.	4r	4r	.	.	.	.	4r	.	.	.	.	.	.	.	4ff/	-us	.	.
.	.	8AA-X/J	[[	8c/J|	[	8g/J|	[[	8a-X\J	.	.	.	.	.	.	.	.	.	.	.	.	.	.	.	.	.	.	.	.	.
=37	=37	=37	=37	=37	=37	=37	=37	=37	=37	=37	=37	=37	=37	=37	=37	=37	=37	=37	=37	=37	=37	=37	=37	=37	=37	=37	=37	=37	=37
*	*	*	*	*	*	*	*	*	*	*	*	*^	*	*	*	*	*	*	*	*	*	*	*	*	*	*	*	*	*
*	*	*	*	*	*	*	*	*	*	*	*	*	*^	*	*	*	*	*	*	*	*	*	*	*	*	*	*	*	*	*
*	*	*2\left	*	*tremolo	*	*tremolo	*	*tremolo	*	*	*	*	*	*	*	*	*	*	*	*	*	*	*	*	*	*	*	*	*	*	*
!	!LO:DY:t=fp.	!	!	!	!LO:DY:t=fp.	!	!LO:DY:t=fp.	!	!LO:DY:t=fp.	!	!	!	!	!	!	!	!	!	!	!	!	!	!	!	!	!	!	!	!	!	!
2D-X\	fp	2D-X\	f	8d-X\L	fp	8f/L	fp	8a-X/L	fp	2.ryy	2.ryy	[2.A-X/	[2.D-X\	2.r	(>2f/	.	2.r	.	.	(<4a-X/	2.r	a-	.	.	2.r	.	.	2ff^/	a-	.	.
.	.	.	.	8d-\	.	8f/	.	8a-/	.	.	.	.	.	.	.	.	.	.	.	.	.	.	.	.	.	.	.	.	.	.	.
.	.	.	.	8d-\	.	8f/	.	8a-/	.	.	.	.	.	.	.	.	.	.	.	4.ff/)	.	.	.	.	.	.	.	.	.	.	.
.	.	.	.	8d-\J	.	8f/J	.	8a-/	.	.	.	.	.	.	.	.	.	.	.	.	.	.	.	.	.	.	.	.	.	.	.
*	*	*	*	*Xtremolo	*	*Xtremolo	*	*	*	*	*	*	*	*	*	*	*	*	*	*	*	*	*	*	*	*	*	*	*	*	*
4r	.	4r	p	8d-\L	.	8f/L	.	8a-/	.	.	.	.	.	.	4a-X/)	.	.	.	.	.	.	.	.	.	.	.	.	8dd-X/L	-gnus	.	.
!	!	!	!	!	!	!LO:SIC:v:s=8e-/J	!	!	!	!	!	!	!	!	!	!	!	!	!	!LO:SIC:v:s=8e-/	!	!	!	!	!	!	!	!LO:SIC:v:s=8ee-/J	!	!	!
.	.	.	.	8A-X\J	.	8e/J	.	8a-/J	.	.	.	.	.	.	.	.	.	.	.	8ee/	.	-gnus	.	.	.	.	.	8ee/J	.	.	.
*	*	*	*	*	*	*	*	*Xtremolo	*	*	*	*	*	*	*	*	*	*	*	*	*	*	*	*	*	*	*	*	*	*	*
=38	=38	=38	=38	=38	=38	=38	=38	=38	=38	=38	=38	=38	=38	=38	=38	=38	=38	=38	=38	=38	=38	=38	=38	=38	=38	=38	=38	=38	=38	=38	=38
8D-X\	.	8D-X\	.	8A-X/	.	8f/	<	8a-X/	<	2.ryy	2.ryy	2.A-/]	4D-\]	2.r	2.f/	.	2.r	.	.	2dd-X/	2.r	De-	.	.	2.r	.	.	2ff/	De-	.	.
8r	.	8r	.	4A-/	.	4f/	.	4a-/	.	.	.	.	.	.	.	.	.	.	.	.	.	.	.	.	.	.	.	.	.	.	.
4r	.	8D-\	.	.	.	.	.	.	.	.	.	.	4r	.	.	.	.	.	.	.	.	.	.	.	.	.	.	.	.	.	.
.	.	8r	.	4A-/	.	4f/	.	4a-/	.	.	.	.	.	.	.	.	.	.	.	.	.	.	.	.	.	.	.	.	.	.	.
4r	.	8D-\	.	.	.	.	.	.	.	.	.	.	4r	.	.	.	.	.	.	8cc/L	.	-i	.	.	.	.	.	4ff/	-i	.	.
.	.	8r	.	8A-/	.	8f/	[	8dd-X/	[	.	.	.	.	.	.	.	.	.	.	8b-/J	.	.	.	.	.	.	.	.	.	.	.
*	*	*	*	*	*	*	*	*	*	*	*	*	*v	*v	*	*	*	*	*	*	*	*	*	*	*	*	*	*	*	*	*
=39	=39	=39	=39	=39	=39	=39	=39	=39	=39	=39	=39	=39	=39	=39	=39	=39	=39	=39	=39	=39	=39	=39	=39	=39	=39	=39	=39	=39	=39	=39
!	!	!LO:TX:a:i:t=Col cbs.	!	!LO:TX:t=P:problem:mixed beam	!LO:DY:t=fp.	!	!LO:DY:rj:t=fp.	!	!LO:DY:rj:t=fp.	!	!	!	!	!	!	!	!	!	!	!	!	!	!	!	!	!	!	!	!	!
8E/L|	.	8E/L|	.	8An/L	fp	8g-X/L	fp	8cc\L|	fp	2.ryy	2.ryy	(<2An/	2.r	(4g-X/	.	2.r	.	.	2an/	2.r	fi-	.	.	2.r	.	.	(4gg-X/	a-	.	.
!	!	!	!	!LO:SIC:v:s=8e-\J	!	!	!	!	!	!	!	!	!	!	!	!	!	!	!	!	!	!	!	!	!	!	!	!	!	!
8C/J|	.	8C/J|	.	8e\J	.	8g-/J	.	8cc\J	.	.	.	.	.	.	.	.	.	.	.	.	.	.	.	.	.	.	.	.	.	.
8F/	.	8F/	.	8r	.	8r	.	8r	.	.	.	.	.	2f/)	.	.	.	.	.	.	.	.	.	.	.	.	8ff/L	.	.	.
!	!	!	!	!	!	!	!	!	!	!	!	!	!	!	!	!	!	!	!	!	!	!	!	!	!	!	!LO:SIC:v:s=8ee-/J)	!	!	!
8r	.	8r	.	(8A/L	.	(8c/L	.	8f/	.	.	.	.	.	.	.	.	.	.	.	.	.	.	.	.	.	.	8ee/J)	.	.	.
8F\	.	8F\	.	8B-/)	.	8d-X/)	.	8r	.	.	.	8B-/L)	.	.	.	.	.	.	8b-/	.	-li-	.	.	.	.	.	(8dd-X/L	-gnus	.	.
!	!	!	!	!	!	!LO:SIC:v:s=8e-/J|	!	!	!	!	!	!	!	!	!	!	!	!	!	!	!	!	!	!	!	!	!	!	!	!
8r	.	8r	.	8c/J|	.	8e/J|	.	8f/	.	.	.	8c/J	.	.	.	.	.	.	8cc/	.	-us	.	.	.	.	.	8cc/J)	.	.	.
!!LO:PB:g=original
=40	=40	=40	=40	=40	=40	=40	=40	=40	=40	=40	=40	=40	=40	=40	=40	=40	=40	=40	=40	=40	=40	=40	=40	=40	=40	=40	=40	=40	=40	=40
*	*	*	*	*	*	*	*	*	*	*	*	*	*	*	*	*	*	*	*	*	*	*	*	*	*	*	*^	*	*	*
!	!	!	!	!	!	!	!	!	!	!	!	!	!	!	!	!	!	!	!	!	!	!	!	!	!	!	!LO:SIC:v:s=2ee-/	!	!	!	!
8BB-/	.	8BB-/	.	8r	.	8r	.	8r	.	2.ryy	2.ryy	(<4c/	2.r	4f/	.	2.r	.	.	2cc/	2.r	pa-	.	.	2.r	.	.	2ee/	2.r	pa-	.	.
!	!	!	!	!	!	!LO:SIC:v:s=8e-/L	!	!	!	!	!	!	!	!	!	!	!	!	!	!	!	!	!	!	!	!	!	!	!	!	!
8r	.	8r	.	8c/L	.	8e/L	.	8a/	.	.	.	.	.	.	.	.	.	.	.	.	.	.	.	.	.	.	.	.	.	.	.
!	!	!	!	!	!	!LO:SIC:v:s=8e-/	!	!	!	!	!	!	!	!	!	!	!	!	!	!	!	!	!	!	!	!	!	!	!	!	!
4r	.	4r	.	8c/	.	8e/	.	8a/L	.	.	.	4F/	.	4r	.	.	.	.	.	.	.	.	.	.	.	.	.	.	.	.	.
!	!	!	!	!	!	!LO:SIC:v:s=8e-/	!	!	!	!	!	!	!	!	!	!	!	!	!	!	!	!	!	!	!	!	!	!	!	!	!
.	.	.	.	8c/	.	8e/	.	(8a/	.	.	.	.	.	.	.	.	.	.	.	.	.	.	.	.	.	.	.	.	.	.	.
4r	.	4r	.	8B-/	.	8d-X/	.	8b-/)	.	.	.	8B-/)	.	4r	.	.	.	.	8b-/	.	-tris	.	.	.	.	.	8dd-X/	.	-tris	.	.
!	!	!	!	!	!	!	!	!	!	!	!	!	!	!LO:TX:a:t=(x)	!	!	!	!	!	!	!	!	!	!	!	!	!	!	!	!	!
.	.	.	.	8d-X/J	.	8f/J	.	8b-/J	.	.	.	8r	.	.	.	.	.	.	8r	.	.	.	.	.	.	.	8r	.	.	.	.
*	*	*	*	*	*	*	*	*	*	*	*	*	*	*	*	*	*	*	*	*	*	*	*	*	*	*	*v	*v	*	*	*
=41	=41	=41	=41	=41	=41	=41	=41	=41	=41	=41	=41	=41	=41	=41	=41	=41	=41	=41	=41	=41	=41	=41	=41	=41	=41	=41	=41	=41	=41	=41
*	*	*	*	*	*	*	*	*	*	*	*	*	*^	*	*	*	*	*	*	*	*	*	*	*	*	*	*	*	*	*
!	!	!	!	!	!	!	!	!	!LO:DY:t=fp.	!	!	!	!	!	!	!	!	!	!	!	!	!	!	!	!	!	!	!	!	!	!
8En\	.	2.r	.	2.En^/	.	8g 8B-/	.	2dd-X\	fp	2.ryy	2.ryy	2B-/	2.En\	2.r	2d-X/	.	2.r	.	.	2dd-X^</	2.r	Gra-	.	.	2.r	.	.	2.r	.	.	.
8r	.	.	.	.	.	4g 4B-/	.	.	.	.	.	.	.	.	.	.	.	.	.	.	.	.	.	.	.	.	.	.	.	.	.
*rep	*	*	*	*	*	*	*	*	*	*	*	*	*	*	*	*	*	*	*	*	*	*	*	*	*	*	*	*	*	*	*
8E\	.	.	.	.	.	.	.	.	.	.	.	.	.	.	.	.	.	.	.	.	.	.	.	.	.	.	.	.	.	.	.
8r	.	.	.	.	.	4g 4B-/	.	.	.	.	.	.	.	.	.	.	.	.	.	.	.	.	.	.	.	.	.	.	.	.	.
*Xrep	*	*	*	*	*	*	*	*	*	*	*	*	*	*	*	*	*	*	*	*	*	*	*	*	*	*	*	*	*	*	*
*rep	*	*	*	*	*	*	*	*	*	*	*	*	*	*	*	*	*	*	*	*	*	*	*	*	*	*	*	*	*	*	*
8E\	.	.	.	.	.	.	.	(8cc\L	.	.	.	4G/	.	.	4c/	.	.	.	.	8cc/	.	-ti-	.	.	.	.	.	.	.	.	.
!	!	!	!	!	!	!	!	!	!	!	!	!	!	!	!	!	!	!	!	!	!	!	!	!	!LO:TX:a:i:t=Solo:note=podkreślone na czerwono	!	!	!	!	!	!
8r	.	.	.	.	.	8g 8B-/	.	8b-\J)	.	.	.	.	.	.	.	.	.	.	.	8b-/	.	-as	.	.	.	.	.	.	.	.	.
*Xrep	*	*	*	*	*	*	*	*	*	*	*	*	*	*	*	*	*	*	*	*	*	*	*	*	*	*	*	*	*	*	*
=42	=42	=42	=42	=42	=42	=42	=42	=42	=42	=42	=42	=42	=42	=42	=42	=42	=42	=42	=42	=42	=42	=42	=42	=42	=42	=42	=42	=42	=42	=42	=42
*	*	*	*	*	*	*	*	*	*	*	*	*	*	*	*	*	*	*	*	*	*	*	*	*	*^	*	*	*	*	*	*
*	*	*2\right	*	*	*	*	*	*	*	*	*	*	*	*	*	*	*	*	*	*	*	*	*	*	*	*	*	*	*	*	*	*
!	!	!	!LO:DY:t=fp.	!	!	!	!	!	!	!	!	!	!	!	!	!	!	!	!	!	!	!	!	!	!	!	!	!	!	!	!	!
8F\	.	2f\	fp	2.F^/	.	8f 8A/	.	8a/	.	2.ryy	2.ryy	2.A/	2.F\	2.r	2.c/	.	2.r	.	.	8.an/	2.r	a-	.	.	2f/	2.r	Gra-	.	2.r	.	.	.
8r	.	.	.	.	.	4c/	.	4a/	.	.	.	.	.	.	.	.	.	.	.	.	.	.	.	.	.	.	.	.	.	.	.	.
.	.	.	.	.	.	.	.	.	.	.	.	.	.	.	.	.	.	.	.	16b-/	.	-gi-	.	.	.	.	.	.	.	.	.	.
*rep	*	*	*	*	*	*	*	*	*	*	*	*	*	*	*	*	*	*	*	*	*	*	*	*	*	*	*	*	*	*	*	*
8F\	.	.	.	.	.	.	.	.	.	.	.	.	.	.	.	.	.	.	.	4cc\	.	-mus	.	.	.	.	.	.	.	.	.	.
8r	.	.	.	.	.	4c/	.	4a/	.	.	.	.	.	.	.	.	.	.	.	.	.	.	.	.	.	.	.	.	.	.	.	.
*Xrep	*	*	*	*	*	*	*	*	*	*	*	*	*	*	*	*	*	*	*	*	*	*	*	*	*	*	*	*	*	*	*	*
*rep	*	*	*	*	*	*	*	*	*	*	*	*	*	*	*	*	*	*	*	*	*	*	*	*	*	*	*	*	*	*	*	*
!	!	!LO:SIC:v:s=8e-\L	!	!	!	!	!	!	!	!	!	!	!	!	!	!	!LO:TX:a:i:t=Solo:note=podkreślone na czerwono	!	!	!	!	!	!	!	!LO:SIC:v:s=8e-/	!	!	!	!	!	!	!
8F\	.	8e\L	.	.	.	.	.	.	.	.	.	.	.	.	.	.	.	.	.	4r	.	.	.	.	8e/	.	-ti-	.	.	.	.	.
8r	.	8c\J	.	.	.	8c/	.	8a/	.	.	.	.	.	.	.	.	.	.	.	.	.	.	.	.	8c/	.	-as	.	.	.	.	.
*Xrep	*	*	*	*	*	*	*	*	*	*	*	*	*	*	*	*	*	*	*	*	*	*	*	*	*	*	*	*	*	*	*	*
*	*	*	*	*	*	*	*	*	*	*	*	*	*	*	*	*	*	*	*	*v	*v	*	*	*	*	*	*	*	*	*	*	*
=43	=43	=43	=43	=43	=43	=43	=43	=43	=43	=43	=43	=43	=43	=43	=43	=43	=43	=43	=43	=43	=43	=43	=43	=43	=43	=43	=43	=43	=43	=43	=43
*	*	*	*	*	*	*	*	*	*	*	*	*	*	*	*	*	*^	*	*	*	*	*	*	*	*	*	*	*	*	*	*
*rep	*	*	*	*	*	*	*	*	*	*	*	*	*	*	*	*	*	*	*above	*	*	*	*	*	*	*	*	*	*	*	*	*
!	!	!	!	!	!LO:DY:t=fp.	!	!	!	!	!	!	!	!	!	!	!	!	!	!	!	!	!	!	!	!	!	!	!	!	!	!	!
8F\	.	(4B-\	.	2D-X/	fp	8d-X/|	.	8b-/|	.	2.ryy	2.ryy	2.G 2.F/	(2D-X\	2.r	(2B-/	.	2D-X/	2.r	Gra-	.	2.r	.	.	.	8.B-/	2.r	a-	.	2.r	.	.	.
8r	.	.	.	.	.	4B-/	.	4en 4G/	.	.	.	.	.	.	.	.	.	.	.	.	.	.	.	.	.	.	.	.	.	.	.	.
.	.	.	.	.	.	.	.	.	.	.	.	.	.	.	.	.	.	.	.	.	.	.	.	.	16d-X/	.	-gi-	.	.	.	.	.
8F\	.	8F\L)	.	.	.	.	.	.	.	.	.	.	.	.	.	.	.	.	.	.	.	.	.	.	4f/	.	-mus	.	.	.	.	.
8r	.	(8D-X\|	.	.	.	4B-/	.	4e 4G/	.	.	.	.	.	.	.	.	.	.	.	.	.	.	.	.	.	.	.	.	.	.	.	.
8F\	.	8C\|	.	4C/	.	.	.	.	.	.	.	.	8C\L)	.	8c/L)	.	8C/	.	-ti-	.	.	.	.	.	4r	.	.	.	.	.	.	.
!	!	!	!	!	!	!	!	!	!	!	!	!	!	!	!	!	!	!	!	!	!	!	!	!	!	!	!	!	!LO:TX:a:i:t=tutti\ne Solo:note=podkreślone na czerwono	!	!	!
8r	.	8BB-\J)|	.	.	.	8d-/	.	8e 8G/	.	.	.	.	8BB-\J	.	8d/J	.	8BB-/	.	-as	.	.	.	.	.	.	.	.	.	.	.	.	.
.	.	.	.	.	p	.	p	.	.	.	.	.	.	.	.	.	.	.	.	.	.	.	.	.	.	.	.	.	.	.	.	.
*Xrep	*	*	*	*	*	*	*	*	*	*	*	*	*	*	*	*	*	*	*	*	*	*	*	*	*	*	*	*	*	*	*	*
=44	=44	=44	=44	=44	=44	=44	=44	=44	=44	=44	=44	=44	=44	=44	=44	=44	=44	=44	=44	=44	=44	=44	=44	=44	=44	=44	=44	=44	=44	=44	=44	=44
*	*	*	*	*	*	*	*	*	*	*	*	*	*	*	*	*	*	*	*	*	*^	*	*	*	*	*	*	*	*^	*	*	*
*	*	*	*	*	*	*	*	*	*	*	*	*	*	*	*	*	*	*	*	*	*	*	*	*	*	*	*	*	*	*	*	*^	*	*
!	!	!	!	!	!	!	!	!	!	!	!	!	!	!	!	!	!	!	!	!	!LO:TX:a:i:t=tutti:note=podkreślone na czerwono	!	!	!	!	!LO:TX:a:i:t=tutti:note=podkreślone na czerwono	!	!	!	!	!	!	!	!	!
8F\	.	4F^\	.	4A^/	.	4c^/	.	8f/|	<	2.ryy	2.ryy	4A/	4F\	2.r	4c/	.	8F/	4r	ti-	.	4r	4ryy	.	.	.	4r	4ryy	.	.	4r	4ryy	.	.	.	.
8r	.	.	.	.	.	.	.	4f^/	.	.	.	.	.	.	.	.	8F/	.	-bi	.	.	.	.	.	.	.	.	.	.	.	.	.	.	.	.
*	*	*	*	*	*	*	*	*	*	*	*	*	*	*	*	*	*	*	*below	*	*	*	*	*	*	*	*	*	*	*	*	*above	*	*	*
!	!	!	!	!	!	!	!	!	!	!	!	!	!	!	!	!	!LO:TX:a:t=tutti:color=blue:note=podkreślone na czerwono	!	!	!	!	!	!	!	!	!	!	!	!	!	!	!	!	!	!
4r	.	4F^\	.	4B-^/	.	4d-X^/	.	.	.	.	.	4B-/	4r	.	4d-X/	.	4F/	4F\	pro-	.	4f/	4f\	pro-	.	.	4f/	4f\	pro-	.	4f/	4f\	pro-	pro-	.	.
.	.	.	.	.	.	.	.	4f^/	.	.	.	.	.	.	.	.	.	.	.	.	.	.	.	.	.	.	.	.	.	.	.	.	.	.	.
*	*	*	*	*	*	*	*	*	*	*	*	*	*ped	*	*	*	*	*	*	*	*	*	*	*	*	*	*	*	*	*	*	*	*	*	*
4r	.	4F^\	.	4Bn^/	.	4dn^/	.	.	.	.	.	4Bn/	4r	.	4dn/	.	4F/	4F\	-pter	.	4f/	4f\	-pter	.	.	4f/	4f\	-pter	.	4f/	4f\	-pter	-pter	.	.
!	!	!	!	!	!	!	!	!	!	!	!	!	!	!	!	!	!	!	!	!	!	!LO:TX:a:i:t=Solo	!	!	!	!	!	!	!	!	!	!	!	!	!
.	.	.	.	.	.	.	.	8f/	[[	.	.	.	.	.	.	.	.	.	.	.	.	.	.	.	.	.	.	.	.	.	.	.	.	.	.
*	*	*	*	*	*	*	*	*	*	*	*	*	*v	*v	*	*	*	*	*	*	*	*	*	*	*	*v	*v	*	*	*	*	*	*	*	*
=45	=45	=45	=45	=45	=45	=45	=45	=45	=45	=45	=45	=45	=45	=45	=45	=45	=45	=45	=45	=45	=45	=45	=45	=45	=45	=45	=45	=45	=45	=45	=45	=45	=45
!	!	!	!	!	!	!LO:SIC:v:n=1:s=2.e-	!	!	!	!	!	!	!LO:N:vis=2	!LO:SIC:v:s=2.e-/	!	!	!LO:N:vis=2	!	!	!	!	!	!	!	!	!	!	!LO:TX:a:i:t=Solo	!LO:SIC:v:s=2.e-\	!	!	!	!
[2.F^\	.	4F^\	.	2.c 2.F^/	.	2.e 2.c^/	.	4f^/	.	2.ryy	2.ryy	2.c 2.A 2.F/	2.FF\	2.e/	.	2.F/	2.F\	glo-	.	[2.ff/	2.a\	glo-	.	.	2.c/	glo-	.	(4f/	2.e\	ma-	glo-	.	.
.	.	(8G'\L	.	.	.	.	.	(8g'/L	.	.	.	.	.	.	.	.	.	.	.	.	.	.	.	.	.	.	.	8g/L	.	.	.	.	.
.	.	8A'\	.	.	.	.	.	8a'/	.	.	.	.	.	.	.	.	.	.	.	.	.	.	.	.	.	.	.	8a/J)	.	.	.	.	.
.	.	8B-'\	.	.	.	.	.	8b-'/	.	.	.	.	.	.	.	.	.	.	.	.	.	.	.	.	.	.	.	8b-/L	.	-gnam	.	.	.
.	.	8c'\J)	.	.	.	.	.	8cc'/J)	.	.	.	.	.	.	.	.	.	.	.	.	.	.	.	.	.	.	.	8cc/J	.	.	.	.	.
=46	=46	=46	=46	=46	=46	=46	=46	=46	=46	=46	=46	=46	=46	=46	=46	=46	=46	=46	=46	=46	=46	=46	=46	=46	=46	=46	=46	=46	=46	=46	=46	=46	=46
(4F\]	.	(4d\	.	2.F/	.	2.d 2.B-/	.	(4dd\	.	2.ryy	2.ryy	4B- 4F/	4F\	4d/	.	2F/	2F\	-ri-	.	4ff/]	2.b-\	.	.	.	2d/	-ri-	.	4dd/	(>4d\	glo-	-ri-	.	.
4D\	.	4B-\)	.	.	.	.	.	4ff\)	.	.	.	4B- 4F/	4D\	4f/	.	.	.	.	.	4dd/	.	-ri-	.	.	.	.	.	4.ff/	4f\)	-ri-	.	.	.
4BB-\)	.	4F'<\	.	.	.	.	.	4f/	.	.	.	4F/	4BB-\	4b- 4d/	.	4F,/	4F\	-am	.	4b-,\	.	-am	.	.	4B-,/	-am	.	.	4d\	.	-am	.	.
.	.	.	.	.	.	.	.	.	.	.	.	.	.	.	.	.	.	.	.	.	.	.	.	.	.	.	.	8g,/	.	-am	.	.	.
=47	=47	=47	=47	=47	=47	=47	=47	=47	=47	=47	=47	=47	=47	=47	=47	=47	=47	=47	=47	=47	=47	=47	=47	=47	=47	=47	=47	=47	=47	=47	=47	=47	=47
*	*	*	*	*	*	*	*	*	*	*	*	*	*^	*	*	*	*	*	*	*	*	*	*	*	*	*	*	*	*	*	*	*	*
!	!	!	!	!	!	!LO:SIC:v:n=1:s=4e-	!	!	!	!	!	!	!	!	!LO:SIC:v:n=2:s=2.e-/	!	!	!LO:N:vis=2	!	!	!	!LO:N:vis=2	!	!	!	!	!	!	!	!LO:SIC:v:n=2:s=2.e-	!	!	!	!
4FF/	.	4F\	.	4A/	.	4e 4c/	.	4f/	.	2.ryy	2.ryy	2.B-/	[2.F\	4FF\	2.f 2.e/	.	[2.F/	[>2.F\	tu	.	[2.b-/	2.b-\	glo-	[glo]	.	[>2.c/	tu	.	[4cc/	[2.e\	ma-	tu	.	.
4r	.	4r	.	4r	.	4r	.	4r	.	.	.	.	.	4r	.	.	.	.	.	.	.	.	.	.	.	.	.	.	16cc/LL]	.	.	.	.	.
.	.	.	.	.	.	.	.	.	.	.	.	.	.	.	.	.	.	.	.	.	.	.	.	.	.	.	.	.	16dd/	.	.	.	.	.
.	.	.	.	.	.	.	.	.	.	.	.	.	.	.	.	.	.	.	.	.	.	.	.	.	.	.	.	.	16cc/	.	.	.	.	.
.	.	.	.	.	.	.	.	.	.	.	.	.	.	.	.	.	.	.	.	.	.	.	.	.	.	.	.	.	16bn/JJ	.	.	.	.	.
4r	.	4r	.	4r	.	4r	.	4r	.	.	.	.	.	4r	.	.	.	.	.	.	.	.	.	.	.	.	.	.	16cc/LL	.	.	.	.	.
.	.	.	.	.	.	.	.	.	.	.	.	.	.	.	.	.	.	.	.	.	.	.	.	.	.	.	.	.	16dd/	.	.	.	.	.
.	.	.	.	.	.	.	.	.	.	.	.	.	.	.	.	.	.	.	.	.	.	.	.	.	.	.	.	.	16ee/	.	.	.	.	.
.	.	.	.	.	.	.	.	.	.	.	.	.	.	.	.	.	.	.	.	.	.	.	.	.	.	.	.	.	16ff/JJ	.	.	.	.	.
*	*	*	*	*	*	*	*	*	*	*	*	*	*	*	*	*	*	*	*	*	*	*	*	*	*	*	*	*	*	*	*v	*v	*	*
=48	=48	=48	=48	=48	=48	=48	=48	=48	=48	=48	=48	=48	=48	=48	=48	=48	=48	=48	=48	=48	=48	=48	=48	=48	=48	=48	=48	=48	=48	=48	=48	=48	=48
*	*	*	*	*	*	*	*	*	*	*	*	*	*	*	*^	*	*	*	*	*	*	*	*	*	*	*	*	*	*	*	*	*	*
!	!	!	!	!	!	!	!	!	!	!	!	!	!	!	!LO:SIC:v:n=2:s=2e-	!	!	!	!	!	!	!	!	!	!	!	!	!	!	!	!LO:SIC:v:s=2e-\_	!	!	!
2.r;	.	2.r;	.	2.r;	.	2.r;	.	2.r;	.	2.ryy	2.ryy	4B-/	2.F\]	2.FF\	[2g-X 2e 2c\	2ryy	.	2F/_	2F\_>	.	.	(4b-/	4b-\]	.	.	.	2c/_	.	.	[<2gg-X/	2e\_	.	.	.
.	.	.	.	.	.	.	.	.	.	.	.	4A/	.	.	.	.	.	.	.	.	.	(>(>4a\)	4ryy	.	.	.	.	.	.	.	.	.	.	.
!	!	!	!	!	!	!	!	!	!	!	!	!	!	!	!	!LO:SIC:v:s=4e-\	!	!	!	!	!	!	!	!	!	!	!	!	!	!	!LO:SIC:v:s=4e-;>\]	!	!	!
.	.	.	.	.	.	.	.	.	.	.	.	4c;/	.	.	8g-;/L]	4e\	.	4F;/]	4F\]	.	.	8a;/))	8a\	.	.	.	4c;/]	.	.	8gg-;/]	4e;>\]	.	.	.
.	.	.	.	.	.	.	.	.	.	.	.	.	.	.	8f/J	.	.	.	.	.	.	8cc/	8cc\	-ri	.	.	.	.	.	8an/	.	-gnam	.	.
*	*	*	*	*	*	*	*	*	*	*	*	*	*	*	*	*	*	*v	*v	*	*	*	*	*	*	*	*	*	*	*	*	*	*	*
*	*	*	*	*	*	*	*	*	*	*	*	*	*v	*v	*	*	*	*	*	*	*v	*v	*	*	*	*	*	*	*	*	*	*	*
!!LO:PB:g=original
=49	=49	=49	=49	=49	=49	=49	=49	=49	=49	=49	=49	=49	=49	=49	=49	=49	=49	=49	=49	=49	=49	=49	=49	=49	=49	=49	=49	=49	=49	=49	=49
*	*	*	*	*	*	*	*	*	*	*	*	*	*	*	*	*	*2\right	*	*	*	*	*	*	*	*	*	*	*	*	*	*
!	!	!	!	!	!	!	!	!	!	!	!	!	!	!	!	!	!	!	!	!	!	!	!	!	!	!	!	!LO:TX:b:t=P:problem:tekst dopisany ołówkiem	!	!	!
8r	.	8r	.	8r	.	8r	.	8r	.	2.ryy	2.ryy	2B-/	2BB-\	2f/	2d\	.	[2.F [2.BB-\	am	.	[2.b-/	.	.	.	[2.d/	.	.	[2.b-/	[2.d\	[-am	.	.
!	!LO:DY:t=pp.	!	!LO:DY:t=pp.	!	!LO:DY:t=pp.	!	!	!	!LO:DY:t=pp.	!	!	!	!	!	!	!	!	!	!	!	!	!	!	!	!	!	!	!	!	!	!
4BB-/	pp	4BB-/	pp	4F/	pp	4B-/	pp	4d/	pp	.	.	.	.	.	.	.	.	.	.	.	.	.	.	.	.	.	.	.	.	.	.
4BB-/	.	4BB-/	.	4B-/	.	4d/	.	4f/	.	.	.	.	.	.	.	.	.	.	.	.	.	.	.	.	.	.	.	.	.	.	.
.	.	.	.	.	.	.	.	.	.	.	.	4r	4ryy	4r	4ryy	.	.	.	.	.	.	.	.	.	.	.	.	.	.	.	.
8BB-/	.	8BB-/	.	8B-/	.	8d/	.	8b-/	.	.	.	.	.	.	.	.	.	.	.	.	.	.	.	.	.	.	.	.	.	.	.
*	*	*	*	*	*	*	*	*	*	*	*	*v	*v	*	*	*	*	*	*	*	*	*	*	*	*	*	*	*	*	*	*
*	*	*	*	*	*	*	*	*	*	*	*	*	*v	*v	*	*	*	*	*	*	*	*	*	*	*	*	*	*	*	*
=50	=50	=50	=50	=50	=50	=50	=50	=50	=50	=50	=50	=50	=50	=50	=50	=50	=50	=50	=50	=50	=50	=50	=50	=50	=50	=50	=50	=50	=50
*	*	*	*	*	*	*	*	*	*	*	*	*	*	*	*^	*	*	*^	*	*	*	*^	*	*	*	*	*	*	*
8BB-/	.	8BB-/	.	8B-/	.	8f/	.	8dd\	.	2.ryy	2.ryy	2.r;	2.r;	.	8F] 8BB-\]	8ryy	.	.	8b-/]	8ryy	.	.	.	8d/]	8ryy	.	.	8b-] 8d/]	8ryy	.	.	.
8r	.	8r	.	8r	.	8r	.	8r	.	.	.	.	.	.	8r	8ryy	.	pp	8r	8ryy	.	.	pp	8r	8ryy	.	pp	8r	8ryy	.	.	pp
!	!	!	!	!	!	!	!	!	!	!	!	!	!	!	!LO:TX:b:i:t=tutti	!	!	!	!LO:TX:b:i:t=tutti	!	!	!	!	!LO:TX:b:i:t=tutti	!	!	!	!LO:TX:b:i:t=tutti	!	!	!	!
!	!	!	!	!	!	!	!	!	!	!	!	!	!	!	!LO:TX:a:i:t=Solo	!	!	!	!LO:TX:a:i:t=Solo	!	!	!	!	!LO:TX:a:i:t=Solo	!	!	!	!LO:TX:a:i:t=Solo	!	!	!	!
4r;	.	4r;	.	4r;	.	4r;	.	4r;	.	.	.	.	.	.	4.B-;/	4.BB-\	.	.	4.dd;/	4.f\	.	.	.	4.f;/	4.B-\	.	.	4.ff;/	4.d;>\	Gra-	.	.
4r	.	4r	.	4r	.	4r	.	4r	.	.	.	.	.	.	.	.	.	.	.	.	.	.	.	.	.	.	.	.	.	.	.	.
.	.	.	.	.	.	.	.	.	.	.	.	.	.	.	8BB-/	8BB-\	.	.	8dd/	8f\	.	.	.	8f/	8B-\	.	.	8dd/	8d\	-ci-	.	.
=51	=51	=51	=51	=51	=51	=51	=51	=51	=51	=51	=51	=51	=51	=51	=51	=51	=51	=51	=51	=51	=51	=51	=51	=51	=51	=51	=51	=51	=51	=51	=51	=51
!	!	!	!	!	!	!	!	!	!	!	!	!	!	!	!	!LO:N:vis=2	!	!	!	!	!	!	!	!	!	!	!	!	!	!	!	!
2.r;	.	2.r;	.	2.r;	.	2.r;	.	2.r;	.	2.ryy	2.ryy	2.r;	2.r;	.	2.BB-;/	2.BB-\	.	.	2.dd;/	2.f\	.	.	.	2.f/	2.B-\	.	.	2.b-;/	2.d\	-as]	.	.
*	*	*	*	*	*	*	*	*	*	*	*	*	*	*	*v	*v	*	*	*	*	*	*	*	*v	*v	*	*	*v	*v	*	*	*
*	*	*	*	*	*	*	*	*	*	*	*	*	*	*	*	*	*	*v	*v	*	*	*	*	*	*	*	*	*	*
==	==	==	==	==	==	==	==	==	==	==	==	==	==	==	==	==	==	==	==	==	==	==	==	==	==	==	==	==
*-	*-	*-	*-	*-	*-	*-	*-	*-	*-	*-	*-	*-	*-	*-	*-	*-	*-	*-	*-	*-	*-	*-	*-	*-	*-	*-	*-	*-
!!!system-decoration: [(s1,s2,s3,s4,g1,g2,s9,s10,s11,s12,s13)]
!!!RDF**kern: > = above
!!!RDF**kern: < = below
!!!RDF**kern: | = vertical stroke
!!!ENC: Marta Lawrence
!!!END: 2021-07-23
!!!ENC: Krzysztof Stępień
!!!END: 2021-07-15
